; generated by PrusaSlicer 2.4.2+win64 on 2022-05-19 at 02:57:15 UTC


;
;
; 

; external perimeters extrusion width = 0.65mm
; perimeters extrusion width = 0.65mm
; infill extrusion width = 0.65mm
; solid infill extrusion width = 0.65mm
; top infill extrusion width = 0.60mm
; first layer extrusion width = 0.65mm

; external perimeters extrusion width = 0.65mm
; perimeters extrusion width = 0.65mm
; infill extrusion width = 0.65mm
; solid infill extrusion width = 0.65mm
; top infill extrusion width = 0.60mm
; first layer extrusion width = 0.65mm

M107
M190 S60 ; set bed temperature and wait for it to be reached
;TYPE:Custom
;Begin Start GCode

;set temps
G10 P0 S210
G10 P0 R170
G10 P1 S210
G10 P1 R170

G28 ;home all axis
G29 S1 ;enable mesh


T0


M116 ;Wait for all temps

G90
M98 P"prime.g"
;End Start GCode
G21 ; set units to millimeters
G90 ; use absolute coordinates
M83 ; use relative distances for extrusion
;T0
T0
; Filament-specific start gcode
M703
M107
;LAYER_CHANGE
;Z:0.2
;HEIGHT:0.2
;BEFORE_LAYER_CHANGE
G92 E0.0
;0.2

G10 ; retract
G1 Z.2 F720
;AFTER_LAYER_CHANGE
;0.2
M800 F"layer"
G1 X145.785 Y141.625 F10800
G11 ; unretract
M204 P800
;TYPE:Skirt/Brim
;WIDTH:0.65
G1 F1200
G1 X146.844 Y140.663 E.06931
G1 X148 Y140.393 E.05752
G1 X182 Y140.393 E1.64763
G1 X183.375 Y140.785 E.06931
G1 X184.337 Y141.844 E.06931
G1 X184.607 Y143 E.05752
G1 X184.607 Y177 E1.64763
G1 X184.215 Y178.375 E.06931
G1 X183.156 Y179.337 E.06931
G1 X182 Y179.607 E.05752
G1 X148 Y179.607 E1.64763
G1 X146.625 Y179.215 E.06931
G1 X145.663 Y178.156 E.06931
G1 X145.393 Y177 E.05752
G1 X145.393 Y143 E1.64763
G1 X145.761 Y141.711 E.06495
M204 P1000
; printing object A id:0 copy 0
G10 ; retract
G1 X149.132 Y160.932 F10800
G11 ; unretract
M204 P800
;TYPE:Perimeter
G1 F1200
G1 X162.614 Y160.932 E.65333
G1 X164.068 Y162.386 E.09965
G1 X164.068 Y175.868 E.65333
G1 X149.132 Y175.868 E.72379
G1 X149.132 Y161.022 E.71943
M204 P1000
G10 ; retract
G1 X165.932 Y144.132 F10800
G11 ; unretract
M204 P800
G1 F1200
G1 X180.868 Y144.132 E.72379
G1 X180.868 Y159.068 E.72379
G1 X167.386 Y159.068 E.65333
G1 X165.932 Y157.614 E.09965
G1 X165.932 Y144.222 E.64896
M204 P1000
G1 X165.325 Y144.675 F10800
M204 P800
;TYPE:External perimeter
G1 F1200
G1 X165.325 Y157.865 E.6392
G1 X167.135 Y159.675 E.12402
G1 X180.325 Y159.675 E.6392
G1 X180.325 Y175.325 E.75839
G1 X164.675 Y175.325 E.75839
G1 X164.675 Y162.135 E.6392
G1 X162.865 Y160.325 E.12402
G1 X149.675 Y160.325 E.6392
G1 X149.675 Y144.675 E.75839
G1 X165.235 Y144.675 E.75403
M204 P1000
G1 X165.905 Y144.52 F10800
G10 ; retract
G1 X181.475 Y143.525
G11 ; unretract
M204 P800
G1 F1200
G1 X181.475 Y176.475 E1.59675
G1 X148.525 Y176.475 E1.59675
G1 X148.525 Y143.525 E1.59675
G1 X181.385 Y143.525 E1.59239
M204 P1000
G1 X181.32 Y144.105 F10800
G10 ; retract
G1 X179.439 Y144.314
G11 ; unretract
M204 P800
;TYPE:Solid infill
;WIDTH:0.659419
G1 F1200
G1 X180.413 Y145.288 E.06778
G1 X180.413 Y146.16 E.04291
G1 X178.84 Y144.587 E.10945
G1 X177.968 Y144.587 E.04291
G1 X180.413 Y147.032 E.17013
G1 X180.413 Y147.904 E.04291
G1 X177.096 Y144.587 E.2308
G1 X176.224 Y144.587 E.04291
G1 X180.413 Y148.776 E.29148
G1 X180.413 Y149.647 E.04291
G1 X175.353 Y144.587 E.35216
G1 X174.481 Y144.587 E.04291
G1 X180.413 Y150.519 E.41284
G1 X180.413 Y151.391 E.04291
G1 X173.609 Y144.587 E.47352
G1 X172.737 Y144.587 E.04291
G1 X180.413 Y152.263 E.53419
G1 X180.413 Y153.135 E.04291
G1 X171.865 Y144.587 E.59487
G1 X170.993 Y144.587 E.04291
G1 X180.413 Y154.007 E.65555
G1 X180.413 Y154.879 E.04291
G1 X170.121 Y144.587 E.71623
G1 X169.25 Y144.587 E.04291
G1 X180.413 Y155.75 E.77691
G1 X180.413 Y156.622 E.04291
G1 X168.378 Y144.587 E.83758
G1 X167.506 Y144.587 E.04291
G1 X180.413 Y157.494 E.89826
G1 X180.413 Y158.366 E.04291
G1 X166.634 Y144.587 E.95894
G1 X166.387 Y144.587 E.01213
G1 X166.387 Y145.213 E.03077
G1 X179.787 Y158.613 E.93258
G1 X178.915 Y158.613 E.04291
G1 X166.387 Y146.085 E.8719
G1 X166.387 Y146.956 E.04291
G1 X178.044 Y158.613 E.81122
G1 X177.172 Y158.613 E.04291
G1 X166.387 Y147.828 E.75055
G1 X166.387 Y148.7 E.04291
G1 X176.3 Y158.613 E.68987
G1 X175.428 Y158.613 E.04291
G1 X166.387 Y149.572 E.62919
G1 X166.387 Y150.444 E.04291
G1 X174.556 Y158.613 E.56851
G1 X173.684 Y158.613 E.04291
G1 X166.387 Y151.316 E.50784
G1 X166.387 Y152.188 E.04291
G1 X172.812 Y158.613 E.44716
G1 X171.941 Y158.613 E.04291
G1 X166.387 Y153.059 E.38648
G1 X166.387 Y153.931 E.04291
G1 X171.069 Y158.613 E.3258
G1 X170.197 Y158.613 E.04291
G1 X166.387 Y154.803 E.26512
G1 X166.387 Y155.675 E.04291
G1 X169.325 Y158.613 E.20445
G1 X168.453 Y158.613 E.04291
G1 X166.387 Y156.547 E.14377
G1 X166.387 Y157.419 E.04291
G1 X167.854 Y158.886 E.1021
M204 P1000
G10 ; retract
G1 X162.145 Y161.114 F10800
G11 ; unretract
M204 P800
G1 F1200
G1 X163.613 Y162.581 E.10211
G1 X163.613 Y163.453 E.04291
G1 X161.547 Y161.387 E.14378
G1 X160.675 Y161.387 E.04291
G1 X163.613 Y164.325 E.20445
G1 X163.613 Y165.197 E.04291
G1 X159.803 Y161.387 E.26513
G1 X158.931 Y161.387 E.04291
G1 X163.613 Y166.069 E.32581
G1 X163.613 Y166.941 E.04291
G1 X158.059 Y161.387 E.38649
G1 X157.187 Y161.387 E.04291
G1 X163.613 Y167.813 E.44717
G1 X163.613 Y168.684 E.04291
G1 X156.316 Y161.387 E.50784
G1 X155.444 Y161.387 E.04291
G1 X163.613 Y169.556 E.56852
G1 X163.613 Y170.428 E.04291
G1 X154.572 Y161.387 E.6292
G1 X153.7 Y161.387 E.04291
G1 X163.613 Y171.3 E.68988
G1 X163.613 Y172.172 E.04291
G1 X152.828 Y161.387 E.75056
G1 X151.956 Y161.387 E.04291
G1 X163.613 Y173.044 E.81123
G1 X163.613 Y173.916 E.04291
G1 X151.084 Y161.387 E.87191
G1 X150.213 Y161.387 E.04291
G1 X163.613 Y174.787 E.93259
G1 X163.613 Y175.413 E.03077
G1 X163.366 Y175.413 E.01214
G1 X149.587 Y161.634 E.95893
G1 X149.587 Y162.506 E.04291
G1 X162.494 Y175.413 E.89825
G1 X161.622 Y175.413 E.04291
G1 X149.587 Y163.378 E.83757
G1 X149.587 Y164.25 E.04291
G1 X160.75 Y175.413 E.7769
G1 X159.879 Y175.413 E.04291
G1 X149.587 Y165.121 E.71622
G1 X149.587 Y165.993 E.04291
G1 X159.007 Y175.413 E.65554
G1 X158.135 Y175.413 E.04291
G1 X149.587 Y166.865 E.59486
G1 X149.587 Y167.737 E.04291
G1 X157.263 Y175.413 E.53419
G1 X156.391 Y175.413 E.04291
G1 X149.587 Y168.609 E.47351
G1 X149.587 Y169.481 E.04291
G1 X155.519 Y175.413 E.41283
G1 X154.647 Y175.413 E.04291
G1 X149.587 Y170.353 E.35215
G1 X149.587 Y171.225 E.04291
G1 X153.775 Y175.413 E.29147
G1 X152.904 Y175.413 E.04291
G1 X149.587 Y172.096 E.2308
G1 X149.587 Y172.968 E.04291
G1 X152.032 Y175.413 E.17012
G1 X151.16 Y175.413 E.04291
G1 X149.587 Y173.84 E.10944
G1 X149.587 Y174.712 E.04291
G1 X150.561 Y175.686 E.06778
M204 P1000
G10 ; retract
G1 X164.371 Y175.9 F10800
G11 ; unretract
M204 P800
;TYPE:Gap fill
;WIDTH:0.585842
G1 F1200
G1 X180.629 Y175.9 E.70456
M204 P1000
M204 P800
;WIDTH:0.632417
G1 X180.741 Y175.877 E.0054
M204 P1000
M204 P800
;WIDTH:0.632418
G1 X180.853 Y175.853 E.0054
G1 X180.9 Y175.629 E.01081
M204 P1000
M204 P800
;WIDTH:0.585842
G1 X180.9 Y159.371 E.70456
M204 P1000
G10 ; retract
G1 X165.629 Y144.1 F10800
G11 ; unretract
M204 P800
G1 F1200
G1 X149.371 Y144.1 E.70456
M204 P1000
M204 P800
;WIDTH:0.632417
G1 X149.147 Y144.147 E.01081
G1 X149.123 Y144.259 E.0054
M204 P1000
M204 P800
;WIDTH:0.632418
G1 X149.1 Y144.371 E.0054
M204 P1000
M204 P800
;WIDTH:0.585842
G1 X149.1 Y160.629 E.70456
M204 P1000
; stop printing object A id:0 copy 0
G10 ; retract
; Filament-specific end gcode
;T1
T1
; Filament-specific start gcode
M703
; printing object A id:0 copy 0
G10 ; retract
G1 X150.932 Y159.068 F10800
G11 ; unretract
M204 P800
;TYPE:Perimeter
;WIDTH:0.65
G1 F1200
G1 X150.932 Y145.932 E.63656
G1 X164.068 Y145.932 E.63656
G1 X164.068 Y158.386 E.60352
G1 X166.614 Y160.932 E.17448
G1 X179.068 Y160.932 E.60352
G1 X179.068 Y174.068 E.63656
G1 X165.932 Y174.068 E.63656
G1 X165.932 Y161.614 E.60352
G1 X163.386 Y159.068 E.17448
G1 X151.022 Y159.068 E.59916
M204 P1000
G1 X150.325 Y159.675 F10800
M204 P800
;TYPE:External perimeter
G1 F1200
G1 X150.325 Y145.325 E.6954
G1 X164.675 Y145.325 E.6954
G1 X164.675 Y158.135 E.62075
G1 X166.865 Y160.325 E.15011
G1 X179.675 Y160.325 E.62075
G1 X179.675 Y174.675 E.6954
G1 X165.325 Y174.675 E.6954
G1 X165.325 Y161.865 E.62075
G1 X163.135 Y159.675 E.15011
G1 X150.415 Y159.675 E.61639
M204 P1000
G1 X150.65 Y159.17 F10800
G10 ; retract
G1 X163.891 Y158.891
G11 ; unretract
M204 P800
;TYPE:Gap fill
;WIDTH:0.400111
G1 F1200
G1 X166.109 Y161.109 E.08946
M204 P1000
G10 ; retract
G1 X178.886 Y162.381 F10800
G11 ; unretract
M204 P800
;TYPE:Solid infill
;WIDTH:0.6687
G1 F1200
G1 X177.892 Y161.387 E.0702
G1 X177.007 Y161.387 E.04421
G1 X178.613 Y162.993 E.11342
G1 X178.613 Y163.878 E.04421
G1 X176.122 Y161.387 E.17593
G1 X175.237 Y161.387 E.04421
G1 X178.613 Y164.763 E.23845
G1 X178.613 Y165.648 E.04421
G1 X174.352 Y161.387 E.30097
G1 X173.467 Y161.387 E.04421
G1 X178.613 Y166.533 E.36349
G1 X178.613 Y167.418 E.04421
G1 X172.582 Y161.387 E.42601
G1 X171.697 Y161.387 E.04421
G1 X178.613 Y168.303 E.48853
G1 X178.613 Y169.188 E.04421
G1 X170.812 Y161.387 E.55104
G1 X169.927 Y161.387 E.04421
G1 X178.613 Y170.073 E.61356
G1 X178.613 Y170.958 E.04421
G1 X169.042 Y161.387 E.67608
G1 X168.157 Y161.387 E.04421
G1 X178.613 Y171.843 E.7386
G1 X178.613 Y172.728 E.04421
G1 X167.272 Y161.387 E.80112
G1 X166.475 Y161.387 E.03982
G1 X166.431 Y161.431 E.0031
G1 X178.613 Y173.613 E.86053
G1 X177.728 Y173.613 E.04421
G1 X166.387 Y162.272 E.80111
G1 X166.387 Y163.157 E.04421
G1 X176.843 Y173.613 E.73859
G1 X175.958 Y173.613 E.04421
G1 X166.387 Y164.042 E.67607
G1 X166.387 Y164.927 E.04421
G1 X175.073 Y173.613 E.61356
G1 X174.188 Y173.613 E.04421
G1 X166.387 Y165.812 E.55104
G1 X166.387 Y166.697 E.04421
G1 X173.303 Y173.613 E.48852
G1 X172.418 Y173.613 E.04421
G1 X166.387 Y167.582 E.426
G1 X166.387 Y168.467 E.04421
G1 X171.533 Y173.613 E.36348
G1 X170.648 Y173.613 E.04421
G1 X166.387 Y169.352 E.30096
G1 X166.387 Y170.237 E.04421
G1 X169.763 Y173.613 E.23844
G1 X168.878 Y173.613 E.04421
G1 X166.387 Y171.122 E.17593
G1 X166.387 Y172.007 E.04421
G1 X167.993 Y173.613 E.11341
G1 X167.108 Y173.613 E.04421
G1 X166.114 Y172.619 E.07019
M204 P1000
G10 ; retract
G1 X162.619 Y146.114 F10800
G11 ; unretract
M204 P800
G1 F1200
G1 X163.613 Y147.108 E.0702
G1 X163.613 Y147.993 E.04421
G1 X162.007 Y146.387 E.11342
G1 X161.122 Y146.387 E.04421
G1 X163.613 Y148.878 E.17593
G1 X163.613 Y149.763 E.04421
G1 X160.237 Y146.387 E.23845
G1 X159.352 Y146.387 E.04421
G1 X163.613 Y150.648 E.30097
G1 X163.613 Y151.533 E.04421
G1 X158.467 Y146.387 E.36349
G1 X157.582 Y146.387 E.04421
G1 X163.613 Y152.418 E.42601
G1 X163.613 Y153.303 E.04421
G1 X156.697 Y146.387 E.48853
G1 X155.812 Y146.387 E.04421
G1 X163.613 Y154.188 E.55104
G1 X163.613 Y155.073 E.04421
G1 X154.927 Y146.387 E.61356
G1 X154.042 Y146.387 E.04421
G1 X163.613 Y155.958 E.67608
G1 X163.613 Y156.843 E.04421
G1 X153.157 Y146.387 E.7386
G1 X152.272 Y146.387 E.04421
G1 X163.613 Y157.728 E.80112
G1 X163.613 Y158.525 E.03982
G1 X163.569 Y158.569 E.0031
G1 X151.387 Y146.387 E.86053
G1 X151.387 Y147.272 E.04421
G1 X162.728 Y158.613 E.80111
G1 X161.843 Y158.613 E.04421
G1 X151.387 Y148.157 E.73859
G1 X151.387 Y149.042 E.04421
G1 X160.958 Y158.613 E.67607
G1 X160.073 Y158.613 E.04421
G1 X151.387 Y149.927 E.61356
G1 X151.387 Y150.812 E.04421
G1 X159.188 Y158.613 E.55104
G1 X158.303 Y158.613 E.04421
G1 X151.387 Y151.697 E.48852
G1 X151.387 Y152.582 E.04421
G1 X157.418 Y158.613 E.426
G1 X156.533 Y158.613 E.04421
G1 X151.387 Y153.467 E.36348
G1 X151.387 Y154.352 E.04421
G1 X155.648 Y158.613 E.30096
G1 X154.763 Y158.613 E.04421
G1 X151.387 Y155.237 E.23844
G1 X151.387 Y156.122 E.04421
G1 X153.878 Y158.613 E.17593
G1 X152.993 Y158.613 E.04421
G1 X151.387 Y157.007 E.11341
G1 X151.387 Y157.892 E.04421
G1 X152.381 Y158.886 E.07019
M204 P1000
; stop printing object A id:0 copy 0
G10 ; retract
M107
;TYPE:Custom
; Filament-specific end gcode
; Filament-specific end gcode
M106 S0 ; turn off cooling fan
G10 P0 S0 R0
G10 P1 S0 R0
M140 S0; turn off bed
;Drop the bed
G91
G1 Z10 F1000
G90
M0
; filament used [mm] = 62.16, 37.20
; filament used [cm3] = 0.15, 0.09
; filament used [g] = 0.19, 0.11
; filament cost = 0.00, 0.00
; total filament used [g] = 0.30
; total filament cost = 0.01
; estimated printing time (normal mode) = 1m 51s

; prusaslicer_config = begin
; avoid_crossing_perimeters = 0
; avoid_crossing_perimeters_max_detour = 0
; bed_custom_model = G:\\Rancor\\Rancor\\PrusaSlicer\\BedModel.stl
; bed_custom_texture = G:\\Rancor\\Rancor\\PrusaSlicer\\BedTexture.png
; bed_shape = 0x0,330x0,330x320,0x320
; bed_temperature = 60,60
; before_layer_gcode = ;BEFORE_LAYER_CHANGE\nG92 E0.0\n;[layer_z]\n
; between_objects_gcode = 
; bottom_fill_pattern = monotonic
; bottom_solid_layers = 4
; bottom_solid_min_thickness = 0.6
; bridge_acceleration = 1000
; bridge_angle = 0
; bridge_fan_speed = 100,100
; bridge_flow_ratio = 1
; bridge_speed = 25
; brim_separation = 0.1
; brim_type = outer_only
; brim_width = 0
; clip_multipart_objects = 1
; color_change_gcode = M600
; complete_objects = 0
; cooling = 1,1
; cooling_tube_length = 5
; cooling_tube_retraction = 91.5
; default_acceleration = 1000
; default_filament_profile = ""
; default_print_profile = 
; deretract_speed = 0,0
; disable_fan_first_layers = 1,1
; dont_support_bridges = 0
; draft_shield = disabled
; duplicate_distance = 6
; elefant_foot_compensation = 0.2
; end_filament_gcode = "; Filament-specific end gcode";"; Filament-specific end gcode"
; end_gcode = M106 S0 ; turn off cooling fan\nG10 P0 S0 R0\nG10 P1 S0 R0\nM140 S0; turn off bed\n;Drop the bed\nG91\nG1 Z10 F1000\nG90\nM0
; ensure_vertical_shell_thickness = 1
; external_perimeter_extrusion_width = 0.65
; external_perimeter_speed = 35
; external_perimeters_first = 0
; extra_loading_move = -2
; extra_perimeters = 0
; extruder_clearance_height = 20
; extruder_clearance_radius = 45
; extruder_colour = #FF8000;#0000FF
; extruder_offset = 0x0,0x0
; extrusion_axis = E
; extrusion_multiplier = 0.96,0.96
; extrusion_width = 0.65
; fan_always_on = 1,1
; fan_below_layer_time = 100,100
; filament_colour = #FF8000;#FF8000
; filament_cooling_final_speed = 3.4,3.4
; filament_cooling_initial_speed = 2.2,2.2
; filament_cooling_moves = 4,4
; filament_cost = 24.99,24.99
; filament_density = 1.24,1.24
; filament_diameter = 1.75,1.75
; filament_load_time = 0,0
; filament_loading_speed = 28,28
; filament_loading_speed_start = 3,3
; filament_max_volumetric_speed = 15,15
; filament_minimal_purge_on_wipe_tower = 15,15
; filament_notes = "Affordable filament for everyday printing in premium quality manufactured in-house by Josef Prusa";"Affordable filament for everyday printing in premium quality manufactured in-house by Josef Prusa"
; filament_ramming_parameters = "120 100| 0.05 6.6 0.45 6.8 0.95 7.8 1.45 8.3 1.95 9.7 2.45 10 2.95 7.6 3.45 7.6 3.95 7.6 4.45 7.6 4.95 7.6";"120 100| 0.05 6.6 0.45 6.8 0.95 7.8 1.45 8.3 1.95 9.7 2.45 10 2.95 7.6 3.45 7.6 3.95 7.6 4.45 7.6 4.95 7.6"
; filament_settings_id = PLA;PLA
; filament_soluble = 0,0
; filament_spool_weight = 0,0
; filament_toolchange_delay = 0,0
; filament_type = PLA;PLA
; filament_unload_time = 0,0
; filament_unloading_speed = 90,90
; filament_unloading_speed_start = 100,100
; filament_vendor = Prusa Polymers
; fill_angle = 45
; fill_density = 15%
; fill_pattern = gyroid
; first_layer_acceleration = 800
; first_layer_acceleration_over_raft = 0
; first_layer_bed_temperature = 60,60
; first_layer_extrusion_width = 0.65
; first_layer_height = 0.2
; first_layer_speed = 20
; first_layer_speed_over_raft = 30
; first_layer_temperature = 210,210
; full_fan_speed_layer = 0,0
; fuzzy_skin = none
; fuzzy_skin_point_dist = 0.8
; fuzzy_skin_thickness = 0.3
; gap_fill_enabled = 1
; gap_fill_speed = 40
; gcode_comments = 0
; gcode_flavor = reprapfirmware
; gcode_label_objects = 1
; gcode_resolution = 0.0125
; gcode_substitutions = 
; high_current_on_filament_swap = 0
; host_type = duet
; infill_acceleration = 1000
; infill_anchor = 2.5
; infill_anchor_max = 15
; infill_every_layers = 1
; infill_extruder = 1
; infill_extrusion_width = 0.65
