; generated by PrusaSlicer 2.4.2+win64 on 2022-05-19 at 02:57:55 UTC


;
;
; 

; external perimeters extrusion width = 0.90mm
; perimeters extrusion width = 0.90mm
; infill extrusion width = 0.90mm
; solid infill extrusion width = 0.90mm
; top infill extrusion width = 0.80mm
; first layer extrusion width = 0.90mm

; external perimeters extrusion width = 0.90mm
; perimeters extrusion width = 0.90mm
; infill extrusion width = 0.90mm
; solid infill extrusion width = 0.90mm
; top infill extrusion width = 0.80mm
; first layer extrusion width = 0.90mm

M107
M190 S60 ; set bed temperature and wait for it to be reached
;TYPE:Custom
;Begin Start GCode

;set temps
G10 P0 S210
G10 P0 R170
G10 P1 S210
G10 P1 R170

G28 ;home all axis
G29 S1 ;enable mesh


T0


M116 ;Wait for all temps

G90
M98 P"prime.g"
;End Start GCode
G21 ; set units to millimeters
G90 ; use absolute coordinates
M83 ; use relative distances for extrusion
;T0
T0
; Filament-specific start gcode
M703
M107
;LAYER_CHANGE
;Z:0.3
;HEIGHT:0.3
;BEFORE_LAYER_CHANGE
G92 E0.0
;0.3

G10 ; retract
G1 Z.3 F720
;AFTER_LAYER_CHANGE
;0.3
M800 F"layer"
G1 X145.662 Y139.959 F10800
G11 ; unretract
M204 P800
;TYPE:Skirt/Brim
;WIDTH:0.9
G1 F1200
G1 X148 Y139.164 E.24705
G1 X182 Y139.164 E3.40184
G1 X183.695 Y139.559 E.17412
G1 X185.041 Y140.662 E.17412
G1 X185.836 Y143 E.24705
G1 X185.836 Y177 E3.40184
G1 X185.441 Y178.695 E.17412
G1 X184.338 Y180.041 E.17412
G1 X182 Y180.836 E.24705
G1 X148 Y180.836 E3.40184
G1 X146.305 Y180.441 E.17412
G1 X144.959 Y179.338 E.17412
G1 X144.164 Y177 E.24705
G1 X144.164 Y143 E3.40184
G1 X144.559 Y141.305 E.17412
G1 X145.586 Y140.052 E.16211
M204 P1000
; printing object A id:0 copy 0
G10 ; retract
G1 X149.55 Y161.286 F10800
G11 ; unretract
M204 P800
;TYPE:Perimeter
G1 F1200
G1 X162.467 Y161.286 E1.29245
G1 X163.714 Y162.533 E.17643
G1 X163.714 Y175.514 E1.29889
G1 X149.486 Y175.514 E1.42365
G1 X149.486 Y161.341 E1.41808
M204 P1000
G10 ; retract
G1 X166.286 Y144.55 F10800
G11 ; unretract
M204 P800
G1 F1200
G1 X166.286 Y144.486 E.00644
G1 X180.514 Y144.486 E1.42365
G1 X180.514 Y158.714 E1.42365
G1 X167.533 Y158.714 E1.29889
G1 X166.286 Y157.467 E.17643
G1 X166.286 Y144.67 E1.28044
M204 P1000
G1 X165.45 Y144.67 F10800
M204 P800
;TYPE:External perimeter
G1 F1200
G1 X165.45 Y157.814 E1.31507
G1 X167.186 Y159.55 E.2457
G1 X180.45 Y159.55 E1.32708
G1 X180.45 Y175.45 E1.59086
G1 X164.55 Y175.45 E1.59086
G1 X164.55 Y162.186 E1.32708
G1 X162.814 Y160.45 E.2457
G1 X149.55 Y160.45 E1.32708
G1 X149.55 Y144.55 E1.59086
G1 X165.45 Y144.55 E1.59086
M204 P1000
G1 X166.223 Y144.464 F10800
G10 ; retract
G1 X181.35 Y143.65
G11 ; unretract
M204 P800
G1 F1200
G1 X181.35 Y176.35 E3.27177
G1 X148.65 Y176.35 E3.27177
G1 X148.65 Y143.65 E3.27177
G1 X181.23 Y143.65 E3.25976
M204 P1000
G1 X181.143 Y144.423 F10800
G10 ; retract
G1 X178.573 Y144.695
G11 ; unretract
M204 P800
;TYPE:Solid infill
;WIDTH:0.920626
G1 F1200
G1 X179.929 Y146.051 E.19673
G1 X179.929 Y147.262 E.12415
G1 X177.738 Y145.071 E.31778
G1 X176.527 Y145.071 E.12415
G1 X179.929 Y148.473 E.49335
G1 X179.929 Y149.684 E.12415
G1 X175.316 Y145.071 E.66892
G1 X174.105 Y145.071 E.12415
G1 X179.929 Y150.895 E.84449
G1 X179.929 Y152.106 E.12415
G1 X172.894 Y145.071 E1.02006
G1 X171.683 Y145.071 E.12415
G1 X179.929 Y153.317 E1.19564
G1 X179.929 Y154.528 E.12415
G1 X170.472 Y145.071 E1.37121
G1 X169.261 Y145.071 E.12415
G1 X179.929 Y155.739 E1.54678
G1 X179.929 Y156.95 E.12415
G1 X168.05 Y145.071 E1.72235
G1 X166.871 Y145.071 E.12097
G1 X166.871 Y145.102 E.00318
G1 X179.898 Y158.129 E1.88892
G1 X178.688 Y158.129 E.12415
G1 X166.871 Y146.312 E1.71335
G1 X166.871 Y147.523 E.12415
G1 X177.477 Y158.129 E1.53778
G1 X176.266 Y158.129 E.12415
G1 X166.871 Y148.734 E1.36221
G1 X166.871 Y149.945 E.12415
G1 X175.055 Y158.129 E1.18664
G1 X173.844 Y158.129 E.12415
G1 X166.871 Y151.156 E1.01107
G1 X166.871 Y152.367 E.12415
G1 X172.633 Y158.129 E.8355
G1 X171.422 Y158.129 E.12415
G1 X166.871 Y153.578 E.65993
G1 X166.871 Y154.789 E.12415
G1 X170.211 Y158.129 E.48436
G1 X169 Y158.129 E.12415
G1 X166.871 Y156 E.30879
G1 X166.871 Y157.211 E.12415
G1 X168.165 Y158.505 E.18774
M204 P1000
G10 ; retract
G1 X161.835 Y161.495 F10800
G11 ; unretract
M204 P800
G1 F1200
G1 X163.129 Y162.789 E.18776
G1 X163.129 Y164 E.12415
G1 X161 Y161.871 E.30881
G1 X159.789 Y161.871 E.12415
G1 X163.129 Y165.211 E.48438
G1 X163.129 Y166.422 E.12415
G1 X158.578 Y161.871 E.65995
G1 X157.367 Y161.871 E.12415
G1 X163.129 Y167.633 E.83552
G1 X163.129 Y168.844 E.12415
G1 X156.156 Y161.871 E1.01109
G1 X154.945 Y161.871 E.12415
G1 X163.129 Y170.055 E1.18666
G1 X163.129 Y171.266 E.12415
G1 X153.734 Y161.871 E1.36223
G1 X152.523 Y161.871 E.12415
G1 X163.129 Y172.477 E1.5378
G1 X163.129 Y173.688 E.12415
G1 X151.312 Y161.871 E1.71337
G1 X150.101 Y161.871 E.12415
G1 X163.129 Y174.899 E1.88894
G1 X163.129 Y174.929 E.00317
G1 X161.949 Y174.929 E.12098
G1 X150.071 Y163.051 E1.72233
G1 X150.071 Y164.261 E.12415
G1 X160.739 Y174.929 E1.54676
G1 X159.528 Y174.929 E.12415
G1 X150.071 Y165.472 E1.37119
G1 X150.071 Y166.683 E.12415
G1 X158.317 Y174.929 E1.19562
G1 X157.106 Y174.929 E.12415
G1 X150.071 Y167.894 E1.02004
G1 X150.071 Y169.105 E.12415
G1 X155.895 Y174.929 E.84447
G1 X154.684 Y174.929 E.12415
G1 X150.071 Y170.316 E.6689
G1 X150.071 Y171.527 E.12415
G1 X153.473 Y174.929 E.49333
G1 X152.262 Y174.929 E.12415
G1 X150.071 Y172.738 E.31776
G1 X150.071 Y173.949 E.12415
G1 X151.427 Y175.305 E.19671
M204 P1000
; stop printing object A id:0 copy 0
G10 ; retract
; Filament-specific end gcode
;T1
T1
; Filament-specific start gcode
M703
; printing object A id:0 copy 0
G10 ; retract
G1 X166.286 Y173.714 F10800
G11 ; unretract
M204 P800
;TYPE:Perimeter
;WIDTH:0.9
G1 F1200
G1 X166.286 Y161.467 E1.22535
G1 X163.533 Y158.714 E.38956
G1 X151.286 Y158.714 E1.22535
G1 X151.286 Y146.286 E1.24355
G1 X163.714 Y146.286 E1.24355
G1 X163.714 Y158.533 E1.22535
G1 X166.467 Y161.286 E.38956
G1 X178.714 Y161.286 E1.22535
G1 X178.714 Y173.714 E1.24355
G1 X166.406 Y173.714 E1.23154
M204 P1000
G1 X165.45 Y174.55 F10800
M204 P800
;TYPE:External perimeter
G1 F1200
G1 X165.45 Y161.814 E1.27433
G1 X163.186 Y159.55 E.3203
G1 X150.45 Y159.55 E1.27433
G1 X150.45 Y145.45 E1.41076
G1 X164.55 Y145.45 E1.41076
G1 X164.55 Y158.186 E1.27433
G1 X166.814 Y160.45 E.3203
G1 X179.55 Y160.45 E1.27433
G1 X179.55 Y174.55 E1.41076
G1 X165.57 Y174.55 E1.39876
M204 P1000
G1 X165.657 Y173.777 F10800
G10 ; retract
G1 X176.775 Y161.495
G11 ; unretract
M204 P800
;TYPE:Solid infill
;WIDTH:0.919592
G1 F1200
G1 X178.129 Y162.849 E.19618
G1 X178.129 Y164.059 E.12385
G1 X175.941 Y161.871 E.31687
G1 X174.732 Y161.871 E.12385
G1 X178.129 Y165.268 E.49202
G1 X178.129 Y166.478 E.12385
G1 X173.522 Y161.871 E.66716
G1 X172.313 Y161.871 E.12385
G1 X178.129 Y167.687 E.84231
G1 X178.129 Y168.896 E.12385
G1 X171.104 Y161.871 E1.01746
G1 X169.894 Y161.871 E.12385
G1 X178.129 Y170.106 E1.19261
G1 X178.129 Y171.315 E.12385
G1 X168.685 Y161.871 E1.36775
G1 X167.475 Y161.871 E.12385
G1 X178.129 Y172.525 E1.5429
G1 X178.129 Y173.129 E.06192
G1 X177.525 Y173.129 E.06193
G1 X166.871 Y162.475 E1.54288
G1 X166.871 Y163.685 E.12385
G1 X176.315 Y173.129 E1.36774
G1 X175.106 Y173.129 E.12385
G1 X166.871 Y164.894 E1.19259
G1 X166.871 Y166.104 E.12385
G1 X173.896 Y173.129 E1.01744
G1 X172.687 Y173.129 E.12385
G1 X166.871 Y167.313 E.84229
G1 X166.871 Y168.523 E.12385
G1 X171.477 Y173.129 E.66715
G1 X170.268 Y173.129 E.12385
G1 X166.871 Y169.732 E.492
G1 X166.871 Y170.941 E.12385
G1 X169.059 Y173.129 E.31685
G1 X167.849 Y173.129 E.12385
G1 X166.495 Y171.775 E.19616
M204 P1000
G10 ; retract
G1 X161.775 Y146.495 F10800
G11 ; unretract
M204 P800
G1 F1200
G1 X163.129 Y147.849 E.19618
G1 X163.129 Y149.059 E.12385
G1 X160.941 Y146.871 E.31687
G1 X159.732 Y146.871 E.12385
G1 X163.129 Y150.268 E.49202
G1 X163.129 Y151.478 E.12385
G1 X158.522 Y146.871 E.66716
G1 X157.313 Y146.871 E.12385
G1 X163.129 Y152.687 E.84231
G1 X163.129 Y153.896 E.12385
G1 X156.104 Y146.871 E1.01746
G1 X154.894 Y146.871 E.12385
G1 X163.129 Y155.106 E1.19261
G1 X163.129 Y156.315 E.12385
G1 X153.685 Y146.871 E1.36775
G1 X152.475 Y146.871 E.12385
G1 X163.129 Y157.525 E1.5429
G1 X163.129 Y158.129 E.06192
G1 X162.525 Y158.129 E.06193
G1 X151.871 Y147.475 E1.54288
G1 X151.871 Y148.685 E.12385
G1 X161.315 Y158.129 E1.36774
G1 X160.106 Y158.129 E.12385
G1 X151.871 Y149.894 E1.19259
G1 X151.871 Y151.104 E.12385
G1 X158.896 Y158.129 E1.01744
G1 X157.687 Y158.129 E.12385
G1 X151.871 Y152.313 E.84229
G1 X151.871 Y153.523 E.12385
G1 X156.477 Y158.129 E.66715
G1 X155.268 Y158.129 E.12385
G1 X151.871 Y154.732 E.492
G1 X151.871 Y155.941 E.12385
G1 X154.059 Y158.129 E.31685
G1 X152.849 Y158.129 E.12385
G1 X151.495 Y156.775 E.19616
M204 P1000
; stop printing object A id:0 copy 0
G10 ; retract
M107
;TYPE:Custom
; Filament-specific end gcode
; Filament-specific end gcode
M106 S0 ; turn off cooling fan
G10 P0 S0 R0
G10 P1 S0 R0
M140 S0; turn off bed
;Drop the bed
G91
G1 Z10 F1000
G90
M0
; filament used [mm] = 98.49, 56.76
; filament used [cm3] = 0.24, 0.14
; filament used [g] = 0.29, 0.17
; filament cost = 0.01, 0.00
; total filament used [g] = 0.46
; total filament cost = 0.01
; estimated printing time (normal mode) = 1m 24s

; prusaslicer_config = begin
; avoid_crossing_perimeters = 0
; avoid_crossing_perimeters_max_detour = 0
; bed_custom_model = G:\\Rancor\\Rancor\\PrusaSlicer\\BedModel.stl
; bed_custom_texture = G:\\Rancor\\Rancor\\PrusaSlicer\\BedTexture.png
; bed_shape = 0x0,330x0,330x320,0x320
; bed_temperature = 60,60
; before_layer_gcode = ;BEFORE_LAYER_CHANGE\nG92 E0.0\n;[layer_z]\n
; between_objects_gcode = 
; bottom_fill_pattern = monotonic
; bottom_solid_layers = 3
; bottom_solid_min_thickness = 0.8
; bridge_acceleration = 1000
; bridge_angle = 0
; bridge_fan_speed = 100,100
; bridge_flow_ratio = 0.9
; bridge_speed = 22
; brim_separation = 0.1
; brim_type = outer_only
; brim_width = 0
; clip_multipart_objects = 1
; color_change_gcode = M600
; complete_objects = 0
; cooling = 1,1
; cooling_tube_length = 5
; cooling_tube_retraction = 91.5
; default_acceleration = 1000
; default_filament_profile = ""
; default_print_profile = 
; deretract_speed = 0,0
; disable_fan_first_layers = 1,1
; dont_support_bridges = 0
; draft_shield = disabled
; duplicate_distance = 6
; elefant_foot_compensation = 0.2
; end_filament_gcode = "; Filament-specific end gcode";"; Filament-specific end gcode"
; end_gcode = M106 S0 ; turn off cooling fan\nG10 P0 S0 R0\nG10 P1 S0 R0\nM140 S0; turn off bed\n;Drop the bed\nG91\nG1 Z10 F1000\nG90\nM0
; ensure_vertical_shell_thickness = 1
; external_perimeter_extrusion_width = 0.9
; external_perimeter_speed = 25
; external_perimeters_first = 0
; extra_loading_move = -2
; extra_perimeters = 0
; extruder_clearance_height = 20
; extruder_clearance_radius = 45
; extruder_colour = #FF8000;#0000FF
; extruder_offset = 0x0,0x0
; extrusion_axis = E
; extrusion_multiplier = 0.96,0.96
; extrusion_width = 0.9
; fan_always_on = 1,1
; fan_below_layer_time = 100,100
; filament_colour = #FF8000;#FF8000
; filament_cooling_final_speed = 3.4,3.4
; filament_cooling_initial_speed = 2.2,2.2
; filament_cooling_moves = 4,4
; filament_cost = 24.99,24.99
; filament_density = 1.24,1.24
; filament_diameter = 1.75,1.75
; filament_load_time = 0,0
; filament_loading_speed = 28,28
; filament_loading_speed_start = 3,3
; filament_max_volumetric_speed = 15,15
; filament_minimal_purge_on_wipe_tower = 15,15
; filament_notes = "Affordable filament for everyday printing in premium quality manufactured in-house by Josef Prusa";"Affordable filament for everyday printing in premium quality manufactured in-house by Josef Prusa"
; filament_ramming_parameters = "120 100| 0.05 6.6 0.45 6.8 0.95 7.8 1.45 8.3 1.95 9.7 2.45 10 2.95 7.6 3.45 7.6 3.95 7.6 4.45 7.6 4.95 7.6";"120 100| 0.05 6.6 0.45 6.8 0.95 7.8 1.45 8.3 1.95 9.7 2.45 10 2.95 7.6 3.45 7.6 3.95 7.6 4.45 7.6 4.95 7.6"
; filament_settings_id = PLA;PLA
; filament_soluble = 0,0
; filament_spool_weight = 0,0
; filament_toolchange_delay = 0,0
; filament_type = PLA;PLA
; filament_unload_time = 0,0
; filament_unloading_speed = 90,90
; filament_unloading_speed_start = 100,100
; filament_vendor = Prusa Polymers
; fill_angle = 45
; fill_density = 15%
; fill_pattern = gyroid
; first_layer_acceleration = 800
; first_layer_acceleration_over_raft = 0
; first_layer_bed_temperature = 60,60
; first_layer_extrusion_width = 0.9
; first_layer_height = 0.3
; first_layer_speed = 20
; first_layer_speed_over_raft = 30
; first_layer_temperature = 210,210
; full_fan_speed_layer = 0,0
; fuzzy_skin = none
; fuzzy_skin_point_dist = 0.8
; fuzzy_skin_thickness = 0.3
; gap_fill_enabled = 1
; gap_fill_speed = 30
; gcode_comments = 0
; gcode_flavor = reprapfirmware
; gcode_label_objects = 1
; gcode_resolution = 0.0125
; gcode_substitutions = 
; high_current_on_filament_swap = 0
; host_type = duet
; infill_acceleration = 1000
; infill_anchor = 2.5
; infill_anchor_max = 20
; infill_every_layers = 1
; infill_extruder = 1
; infill_extrusion_width = 0.9
; infill_first = 0
; infill_only_where_needed = 0
; infill_overlap = 30%
; infill_speed = 50
; interface_shells = 0
; ironing = 0
; ironing_flowrate = 15%
; ironing_spacing = 0.1
; ironing_speed = 15
; ironing_type = top
; layer_gcode = ;AFTER_LAYER_CHANGE\n;[layer_z]\nM800 F"layer"
; layer_height = 0.4
; machine_limits_usage = time_estimate_only
; machine_max_acceleration_e = 1500,1500
; machine_max_acceleration_extruding = 1500,1500
; machine_max_acceleration_retracting = 1500,1500
; machine_max_acceleration_travel = 500,1250
; machine_max_acceleration_x = 500,500
; machine_max_acceleration_y = 500,500
; machine_max_acceleration_z = 100,100
; machine_max_feedrate_e = 60,60
; machine_max_feedrate_x = 180,180
; machine_max_feedrate_y = 180,180
; machine_max_feedrate_z = 15,15
; machine_max_jerk_e = 25,25
; machine_max_jerk_x = 6.7,6.7
; machine_max_jerk_y = 6.7,6.7
; machine_max_jerk_z = 1.7,1.7
; machine_min_extruding_rate = 0,0
; machine_min_travel_rate = 0,0
; max_fan_speed = 100,100
; max_layer_height = 0,0
; max_print_height = 601
; max_print_speed = 50
; max_volumetric_speed = 0
; min_fan_speed = 100,100
; min_layer_height = 0.07,0.07
; min_print_speed = 15,15
; min_skirt_length = 4
; mmu_segmented_region_max_width = 0
; notes = 
; nozzle_diameter = 0.8,0.8
; only_retract_when_crossing_perimeters = 0
; ooze_prevention = 0
; output_filename_format = {input_filename_base}_T0-{filament_preset[0]}_T1-{filament_preset[1]}.gcode
; overhangs = 0
; parking_pos_retraction = 92
; pause_print_gcode = M601
; perimeter_acceleration = 800
; perimeter_extruder = 1
; perimeter_extrusion_width = 0.9
; perimeter_speed = 35
; perimeters = 2
; physical_printer_settings_id = Printer 1
; post_process = 
; print_settings_id = N0.8 0.40mm QUALITY
; printer_model = 
; printer_notes = 
; printer_settings_id = Rancor
; printer_technology = FFF
; printer_variant = 
; printer_vendor = 
; raft_contact_distance = 0.2
; raft_expansion = 1.5
; raft_first_layer_density = 90%
; raft_first_layer_expansion = 3
; raft_layers = 0
; remaining_times = 0
; resolution = 0
; retract_before_travel = 2,2
; retract_before_wipe = 70%,70%
; retract_layer_change = 1,1
; retract_length = 0.5,0.5
; retract_length_toolchange = 0,0
; retract_lift = 0,0
; retract_lift_above = 0,0
; retract_lift_below = 600,600
; retract_restart_extra = 0,0
; retract_restart_extra_toolchange = 0,0
; retract_speed = 40,40
; seam_position = nearest
; silent_mode = 1
; single_extruder_multi_material = 0
; single_extruder_multi_material_priming = 0
; skirt_distance = 3
; skirt_height = 2
; skirts = 1
; slice_closing_radius = 0.049
; slicing_mode = regular
; slowdown_below_layer_time = 20,20
; small_perimeter_speed = 25
; solid_infill_below_area = 0
; solid_infill_every_layers = 0
; solid_infill_extruder = 1
; solid_infill_extrusion_width = 0.9
; solid_infill_speed = 45
; spiral_vase = 0
; standby_temperature_delta = 170
