; generated by PrusaSlicer 2.4.2+win64 on 2022-05-19 at 02:55:47 UTC


;
;
; 

; external perimeters extrusion width = 0.45mm
; perimeters extrusion width = 0.45mm
; infill extrusion width = 0.45mm
; solid infill extrusion width = 0.45mm
; top infill extrusion width = 0.40mm
; first layer extrusion width = 0.42mm

; external perimeters extrusion width = 0.45mm
; perimeters extrusion width = 0.45mm
; infill extrusion width = 0.45mm
; solid infill extrusion width = 0.45mm
; top infill extrusion width = 0.40mm
; first layer extrusion width = 0.42mm

M107
M190 S60 ; set bed temperature and wait for it to be reached
;TYPE:Custom
;Begin Start GCode

;set temps
G10 P0 S210
G10 P0 R170
G10 P1 S210
G10 P1 R170

G28 ;home all axis
G29 S1 ;enable mesh


T0


M116 ;Wait for all temps

G90
M98 P"prime.g"
;End Start GCode
G21 ; set units to millimeters
G90 ; use absolute coordinates
M83 ; use relative distances for extrusion
;T0
T0
; Filament-specific start gcode
M703
M107
;LAYER_CHANGE
;Z:0.2
;HEIGHT:0.2
;BEFORE_LAYER_CHANGE
G92 E0.0
;0.2

G10 ; retract
G1 Z.2 F10800
;AFTER_LAYER_CHANGE
;0.2
M800 F"layer"
G1 X146.015 Y141.693
G11 ; unretract
M204 P1000
;TYPE:Skirt/Brim
;WIDTH:0.42
G1 F1200
G1 X147.06 Y140.817 E.04107
G1 X148 Y140.623 E.02888
G1 X182 Y140.623 E1.0234
G1 X183.307 Y141.015 E.04107
G1 X184.183 Y142.06 E.04107
G1 X184.377 Y143 E.02888
G1 X184.377 Y177 E1.0234
G1 X183.985 Y178.307 E.04107
G1 X182.94 Y179.183 E.04107
G1 X182 Y179.377 E.02888
G1 X148 Y179.377 E1.0234
G1 X146.693 Y178.985 E.04107
G1 X145.817 Y177.94 E.04107
G1 X145.623 Y177 E.02888
G1 X145.623 Y143 E1.0234
G1 X145.997 Y141.75 E.03926
G10 ; retract
G1 X149.413 Y144.413 F10800
G11 ; unretract
;TYPE:Perimeter
G1 F1200
G1 X165.587 Y144.413 E.48684
G1 X165.587 Y157.757 E.40165
G1 X167.243 Y159.413 E.0705
G1 X180.587 Y159.413 E.40165
G1 X180.587 Y175.587 E.48684
G1 X164.413 Y175.587 E.48684
G1 X164.413 Y162.243 E.40165
G1 X162.757 Y160.587 E.0705
G1 X149.413 Y160.587 E.40165
G1 X149.413 Y144.473 E.48504
G1 X149.79 Y144.79 F10800
;TYPE:External perimeter
G1 F1200
G1 X165.21 Y144.79 E.46414
G1 X165.21 Y157.913 E.395
G1 X167.087 Y159.79 E.0799
G1 X180.21 Y159.79 E.395
G1 X180.21 Y175.21 E.46414
G1 X164.79 Y175.21 E.46414
G1 X164.79 Y162.087 E.395
G1 X162.913 Y160.21 E.0799
G1 X149.79 Y160.21 E.395
G1 X149.79 Y144.85 E.46234
G1 X149.697 Y144.401 F10800
G1 X148.787 Y143.787
;TYPE:Perimeter
G1 F1200
G1 X181.213 Y143.787 E.97602
G1 X181.213 Y176.213 E.97602
G1 X148.787 Y176.213 E.97602
G1 X148.787 Y143.847 E.97422
G1 X148.41 Y143.41 F10800
;TYPE:External perimeter
G1 F1200
G1 X181.59 Y143.41 E.99872
G1 X181.59 Y176.59 E.99872
G1 X148.41 Y176.59 E.99872
G1 X148.41 Y143.47 E.99692
G1 X148.796 Y143.514 F10800
G1 X149.121 Y144.121
;TYPE:Gap fill
;WIDTH:0.334364
G1 F1200
G1 X149.1 Y144.224 E.00245
;WIDTH:0.291684
G1 X149.1 Y160.776 E.32866
G10 ; retract
G1 X149.121 Y144.121 F10800
G11 ; unretract
;WIDTH:0.334366
G1 F1200
G1 X149.224 Y144.1 E.00245
;WIDTH:0.291684
G1 X165.776 Y144.1 E.32866
G10 ; retract
G1 X180.324 Y143.9 F10800
G11 ; unretract
;TYPE:Solid infill
;WIDTH:0.426247
G1 F1200
G1 X180.93 Y144.506 E.02622
G1 X180.93 Y145.048 E.01659
G1 X179.952 Y144.07 E.04233
G1 X179.41 Y144.07 E.01659
G1 X180.93 Y145.59 E.06579
G1 X180.93 Y146.132 E.01659
G1 X178.868 Y144.07 E.08925
G1 X178.326 Y144.07 E.01659
G1 X180.93 Y146.674 E.11271
G1 X180.93 Y147.217 E.01659
G1 X177.783 Y144.07 E.13617
G1 X177.241 Y144.07 E.01659
G1 X180.93 Y147.759 E.15963
G1 X180.93 Y148.301 E.01659
G1 X176.699 Y144.07 E.18308
G1 X176.157 Y144.07 E.01659
G1 X180.93 Y148.843 E.20654
G1 X180.93 Y149.385 E.01659
G1 X175.615 Y144.07 E.23
G1 X175.073 Y144.07 E.01659
G1 X180.93 Y149.927 E.25346
G1 X180.93 Y150.469 E.01659
G1 X174.531 Y144.07 E.27692
G1 X173.989 Y144.07 E.01659
G1 X180.93 Y151.011 E.30038
G1 X180.93 Y151.553 E.01659
G1 X173.447 Y144.07 E.32384
G1 X172.904 Y144.07 E.01659
G1 X180.93 Y152.096 E.3473
G1 X180.93 Y152.638 E.01659
G1 X172.362 Y144.07 E.37075
G1 X171.82 Y144.07 E.01659
G1 X180.93 Y153.18 E.39421
G1 X180.93 Y153.722 E.01659
G1 X171.278 Y144.07 E.41767
G1 X170.736 Y144.07 E.01659
G1 X180.93 Y154.264 E.44113
G1 X180.93 Y154.806 E.01659
G1 X170.194 Y144.07 E.46459
G1 X169.652 Y144.07 E.01659
G1 X180.93 Y155.348 E.48805
G1 X180.93 Y155.89 E.01659
G1 X169.11 Y144.07 E.51151
G1 X168.568 Y144.07 E.01659
G1 X180.93 Y156.432 E.53497
G1 X180.93 Y156.974 E.01659
G1 X168.026 Y144.07 E.55842
G1 X167.483 Y144.07 E.01659
G1 X180.93 Y157.517 E.58188
G1 X180.93 Y158.059 E.01659
G1 X166.941 Y144.07 E.60534
G1 X166.399 Y144.07 E.01659
G1 X180.93 Y158.601 E.6288
G1 X180.93 Y158.942 E.01043
G1 X180.729 Y158.942 E.00616
G1 X166.058 Y144.271 E.63484
G1 X166.058 Y144.529 E.00788
G1 X165.87 Y144.529 E.00577
G1 X165.87 Y144.625 E.00294
G1 X180.375 Y159.13 E.6277
G1 X179.833 Y159.13 E.01659
G1 X165.87 Y145.167 E.60424
G1 X165.87 Y145.709 E.01659
G1 X179.291 Y159.13 E.58078
G1 X178.749 Y159.13 E.01659
G1 X165.87 Y146.251 E.55732
G1 X165.87 Y146.793 E.01659
G1 X178.207 Y159.13 E.53386
G1 X177.665 Y159.13 E.01659
G1 X165.87 Y147.335 E.5104
G1 X165.87 Y147.877 E.01659
G1 X177.123 Y159.13 E.48694
G1 X176.581 Y159.13 E.01659
G1 X165.87 Y148.419 E.46349
G1 X165.87 Y148.962 E.01659
G1 X176.038 Y159.13 E.44003
G1 X175.496 Y159.13 E.01659
G1 X165.87 Y149.504 E.41657
G1 X165.87 Y150.046 E.01659
G1 X174.954 Y159.13 E.39311
G1 X174.412 Y159.13 E.01659
G1 X165.87 Y150.588 E.36965
G1 X165.87 Y151.13 E.01659
G1 X173.87 Y159.13 E.34619
G1 X173.328 Y159.13 E.01659
G1 X165.87 Y151.672 E.32273
G1 X165.87 Y152.214 E.01659
G1 X172.786 Y159.13 E.29927
G1 X172.244 Y159.13 E.01659
G1 X165.87 Y152.756 E.27582
G1 X165.87 Y153.298 E.01659
G1 X171.702 Y159.13 E.25236
G1 X171.159 Y159.13 E.01659
G1 X165.87 Y153.841 E.2289
G1 X165.87 Y154.383 E.01659
G1 X170.617 Y159.13 E.20544
G1 X170.075 Y159.13 E.01659
G1 X165.87 Y154.925 E.18198
G1 X165.87 Y155.467 E.01659
G1 X169.533 Y159.13 E.15852
G1 X168.991 Y159.13 E.01659
G1 X165.87 Y156.009 E.13506
G1 X165.87 Y156.551 E.01659
G1 X168.449 Y159.13 E.1116
G1 X167.907 Y159.13 E.01659
G1 X165.87 Y157.093 E.08815
G1 X165.87 Y157.635 E.01659
G1 X167.534 Y159.3 E.07203
G10 ; retract
G1 X162.466 Y160.7 F10800
G11 ; unretract
G1 F1200
G1 X164.13 Y162.365 E.07203
G1 X164.13 Y162.907 E.01659
G1 X162.093 Y160.87 E.08815
G1 X161.551 Y160.87 E.01659
G1 X164.13 Y163.449 E.11161
G1 X164.13 Y163.991 E.01659
G1 X161.009 Y160.87 E.13507
G1 X160.467 Y160.87 E.01659
G1 X164.13 Y164.533 E.15853
G1 X164.13 Y165.075 E.01659
G1 X159.925 Y160.87 E.18198
G1 X159.383 Y160.87 E.01659
G1 X164.13 Y165.617 E.20544
G1 X164.13 Y166.16 E.01659
G1 X158.84 Y160.87 E.2289
G1 X158.298 Y160.87 E.01659
G1 X164.13 Y166.702 E.25236
G1 X164.13 Y167.244 E.01659
G1 X157.756 Y160.87 E.27582
G1 X157.214 Y160.87 E.01659
G1 X164.13 Y167.786 E.29928
G1 X164.13 Y168.328 E.01659
G1 X156.672 Y160.87 E.32274
G1 X156.13 Y160.87 E.01659
G1 X164.13 Y168.87 E.34619
G1 X164.13 Y169.412 E.01659
G1 X155.588 Y160.87 E.36965
G1 X155.046 Y160.87 E.01659
G1 X164.13 Y169.954 E.39311
G1 X164.13 Y170.496 E.01659
G1 X154.504 Y160.87 E.41657
G1 X153.962 Y160.87 E.01659
G1 X164.13 Y171.038 E.44003
G1 X164.13 Y171.581 E.01659
G1 X153.419 Y160.87 E.46349
G1 X152.877 Y160.87 E.01659
G1 X164.13 Y172.123 E.48695
G1 X164.13 Y172.665 E.01659
G1 X152.335 Y160.87 E.51041
G1 X151.793 Y160.87 E.01659
G1 X164.13 Y173.207 E.53386
G1 X164.13 Y173.749 E.01659
G1 X151.251 Y160.87 E.55732
G1 X150.709 Y160.87 E.01659
G1 X164.13 Y174.291 E.58078
G1 X164.13 Y174.833 E.01659
G1 X150.167 Y160.87 E.60424
G1 X149.625 Y160.87 E.01659
G1 X164.13 Y175.375 E.6277
G1 X164.13 Y175.471 E.00294
G1 X163.942 Y175.471 E.00577
G1 X163.942 Y175.729 E.00788
G1 X149.271 Y161.058 E.63484
G1 X149.07 Y161.058 E.00616
G1 X149.07 Y161.399 E.01043
G1 X163.601 Y175.93 E.6288
G1 X163.059 Y175.93 E.01659
G1 X149.07 Y161.941 E.60534
G1 X149.07 Y162.484 E.01659
G1 X162.516 Y175.93 E.58188
G1 X161.974 Y175.93 E.01659
G1 X149.07 Y163.026 E.55842
G1 X149.07 Y163.568 E.01659
G1 X161.432 Y175.93 E.53496
G1 X160.89 Y175.93 E.01659
G1 X149.07 Y164.11 E.5115
G1 X149.07 Y164.652 E.01659
G1 X160.348 Y175.93 E.48804
G1 X159.806 Y175.93 E.01659
G1 X149.07 Y165.194 E.46459
G1 X149.07 Y165.736 E.01659
G1 X159.264 Y175.93 E.44113
G1 X158.722 Y175.93 E.01659
G1 X149.07 Y166.278 E.41767
G1 X149.07 Y166.82 E.01659
G1 X158.18 Y175.93 E.39421
G1 X157.638 Y175.93 E.01659
G1 X149.07 Y167.362 E.37075
G1 X149.07 Y167.905 E.01659
G1 X157.095 Y175.93 E.34729
G1 X156.553 Y175.93 E.01659
G1 X149.07 Y168.447 E.32383
G1 X149.07 Y168.989 E.01659
G1 X156.011 Y175.93 E.30037
G1 X155.469 Y175.93 E.01659
G1 X149.07 Y169.531 E.27692
G1 X149.07 Y170.073 E.01659
G1 X154.927 Y175.93 E.25346
G1 X154.385 Y175.93 E.01659
G1 X149.07 Y170.615 E.23
G1 X149.07 Y171.157 E.01659
G1 X153.843 Y175.93 E.20654
G1 X153.301 Y175.93 E.01659
G1 X149.07 Y171.699 E.18308
G1 X149.07 Y172.241 E.01659
G1 X152.759 Y175.93 E.15962
G1 X152.216 Y175.93 E.01659
G1 X149.07 Y172.784 E.13616
G1 X149.07 Y173.326 E.01659
G1 X151.674 Y175.93 E.11271
G1 X151.132 Y175.93 E.01659
G1 X149.07 Y173.868 E.08925
G1 X149.07 Y174.41 E.01659
G1 X150.59 Y175.93 E.06579
G1 X150.048 Y175.93 E.01659
G1 X149.07 Y174.952 E.04233
G1 X149.07 Y175.494 E.01659
G1 X149.676 Y176.1 E.02621
G10 ; retract
G1 X164.224 Y175.9 F10800
G11 ; unretract
;TYPE:Gap fill
;WIDTH:0.291684
G1 F1200
G1 X180.776 Y175.9 E.32866
;WIDTH:0.334366
G1 X180.879 Y175.879 E.00245
;WIDTH:0.334364
G1 X180.9 Y175.776 E.00245
;WIDTH:0.291684
G1 X180.9 Y159.224 E.32866
G10 ; retract
; Filament-specific end gcode
;T1
T1
; Filament-specific start gcode
M703
G10 ; retract
G1 X179.413 Y160.587 F10800
G11 ; unretract
;TYPE:Perimeter
;WIDTH:0.42
G1 F1200
G1 X179.413 Y174.413 E.41616
G1 X165.587 Y174.413 E.41616
G1 X165.587 Y161.757 E.38095
G1 X163.243 Y159.413 E.09978
G1 X150.587 Y159.413 E.38095
G1 X150.587 Y145.587 E.41616
G1 X164.413 Y145.587 E.41616
G1 X164.413 Y158.243 E.38095
G1 X166.757 Y160.587 E.09978
G1 X179.353 Y160.587 E.37914
G1 X179.79 Y160.21 F10800
;TYPE:External perimeter
G1 F1200
G1 X179.79 Y174.79 E.43886
G1 X165.21 Y174.79 E.43886
G1 X165.21 Y161.913 E.3876
G1 X163.087 Y159.79 E.09037
G1 X150.21 Y159.79 E.3876
G1 X150.21 Y145.21 E.43886
G1 X164.79 Y145.21 E.43886
G1 X164.79 Y158.087 E.3876
G1 X166.913 Y160.21 E.09037
G1 X179.73 Y160.21 E.38579
G1 X179.574 Y160.547 F10800
G10 ; retract
G1 X163.535 Y145.7
G11 ; unretract
;TYPE:Solid infill
;WIDTH:0.421078
G1 F1200
G1 X164.13 Y146.295 E.0254
G1 X164.13 Y146.83 E.01614
G1 X163.17 Y145.87 E.04098
G1 X162.635 Y145.87 E.01614
G1 X164.13 Y147.365 E.06381
G1 X164.13 Y147.899 E.01614
G1 X162.101 Y145.87 E.08664
G1 X161.566 Y145.87 E.01614
G1 X164.13 Y148.434 E.10947
G1 X164.13 Y148.969 E.01614
G1 X161.031 Y145.87 E.1323
G1 X160.496 Y145.87 E.01614
G1 X164.13 Y149.504 E.15513
G1 X164.13 Y150.039 E.01614
G1 X159.961 Y145.87 E.17796
G1 X159.427 Y145.87 E.01614
G1 X164.13 Y150.573 E.20079
G1 X164.13 Y151.108 E.01614
G1 X158.892 Y145.87 E.22362
G1 X158.357 Y145.87 E.01614
G1 X164.13 Y151.643 E.24645
G1 X164.13 Y152.178 E.01614
G1 X157.822 Y145.87 E.26928
G1 X157.287 Y145.87 E.01614
G1 X164.13 Y152.713 E.29211
G1 X164.13 Y153.247 E.01614
G1 X156.753 Y145.87 E.31495
G1 X156.218 Y145.87 E.01614
G1 X164.13 Y153.782 E.33778
G1 X164.13 Y154.317 E.01614
G1 X155.683 Y145.87 E.36061
G1 X155.148 Y145.87 E.01614
G1 X164.13 Y154.852 E.38344
G1 X164.13 Y155.387 E.01614
G1 X154.613 Y145.87 E.40627
G1 X154.079 Y145.87 E.01614
G1 X164.13 Y155.921 E.4291
G1 X164.13 Y156.456 E.01614
G1 X153.544 Y145.87 E.45193
G1 X153.009 Y145.87 E.01614
G1 X164.13 Y156.991 E.47476
G1 X164.13 Y157.526 E.01614
G1 X152.305 Y145.7 E.50483
G10 ; retract
G1 X179.3 Y161.465 F10800
G11 ; unretract
G1 F1200
G1 X178.705 Y160.87 E.02539
G1 X178.17 Y160.87 E.01614
G1 X179.13 Y161.83 E.04098
G1 X179.13 Y162.365 E.01614
G1 X177.635 Y160.87 E.06381
G1 X177.101 Y160.87 E.01614
G1 X179.13 Y162.899 E.08664
G1 X179.13 Y163.434 E.01614
G1 X176.566 Y160.87 E.10947
G1 X176.031 Y160.87 E.01614
G1 X179.13 Y163.969 E.1323
G1 X179.13 Y164.504 E.01614
G1 X175.496 Y160.87 E.15513
G1 X174.961 Y160.87 E.01614
G1 X179.13 Y165.039 E.17796
G1 X179.13 Y165.573 E.01614
G1 X174.427 Y160.87 E.20079
G1 X173.892 Y160.87 E.01614
G1 X179.13 Y166.108 E.22362
G1 X179.13 Y166.643 E.01614
G1 X173.357 Y160.87 E.24645
G1 X172.822 Y160.87 E.01614
G1 X179.13 Y167.178 E.26928
G1 X179.13 Y167.713 E.01614
G1 X172.287 Y160.87 E.29211
G1 X171.753 Y160.87 E.01614
G1 X179.13 Y168.247 E.31495
G1 X179.13 Y168.782 E.01614
G1 X171.218 Y160.87 E.33778
G1 X170.683 Y160.87 E.01614
G1 X179.13 Y169.317 E.36061
G1 X179.13 Y169.852 E.01614
G1 X170.148 Y160.87 E.38344
G1 X169.613 Y160.87 E.01614
G1 X179.13 Y170.387 E.40627
G1 X179.13 Y170.921 E.01614
G1 X169.079 Y160.87 E.4291
G1 X168.544 Y160.87 E.01614
G1 X179.13 Y171.456 E.45193
G1 X179.13 Y171.991 E.01614
G1 X168.009 Y160.87 E.47476
G1 X167.474 Y160.87 E.01614
G1 X179.13 Y172.526 E.49759
G1 X179.13 Y173.061 E.01614
G1 X166.939 Y160.87 E.52042
G1 X166.64 Y160.87 E.00905
G1 X164.13 Y158.36 E.10713
G1 X164.13 Y158.061 E.00905
G1 X151.939 Y145.87 E.52042
G1 X151.405 Y145.87 E.01614
G1 X179.13 Y173.595 E1.18359
G1 X179.13 Y174.13 E.01614
G1 X150.87 Y145.87 E1.20642
G1 X150.87 Y146.405 E.01614
G1 X178.595 Y174.13 E1.18359
G1 X178.06 Y174.13 E.01614
G1 X165.87 Y161.94 E.52041
G1 X165.87 Y161.64 E.00905
G1 X163.36 Y159.13 E.10713
G1 X163.06 Y159.13 E.00905
G1 X150.87 Y146.94 E.52041
G1 X150.87 Y147.474 E.01614
G1 X162.526 Y159.13 E.49758
G1 X161.991 Y159.13 E.01614
G1 X150.87 Y148.009 E.47475
G1 X150.87 Y148.544 E.01614
G1 X161.456 Y159.13 E.45192
G1 X160.921 Y159.13 E.01614
G1 X150.87 Y149.079 E.42909
G1 X150.87 Y149.613 E.01614
G1 X160.386 Y159.13 E.40626
G1 X159.852 Y159.13 E.01614
G1 X150.87 Y150.148 E.38343
G1 X150.87 Y150.683 E.01614
G1 X159.317 Y159.13 E.3606
G1 X158.782 Y159.13 E.01614
G1 X150.87 Y151.218 E.33777
G1 X150.87 Y151.753 E.01614
G1 X158.247 Y159.13 E.31494
G1 X157.713 Y159.13 E.01614
G1 X150.87 Y152.287 E.29211
G1 X150.87 Y152.822 E.01614
G1 X157.178 Y159.13 E.26928
G1 X156.643 Y159.13 E.01614
G1 X150.87 Y153.357 E.24645
G1 X150.87 Y153.892 E.01614
G1 X156.108 Y159.13 E.22362
G1 X155.573 Y159.13 E.01614
G1 X150.87 Y154.427 E.20079
G1 X150.87 Y154.961 E.01614
G1 X155.039 Y159.13 E.17796
G1 X154.504 Y159.13 E.01614
G1 X150.87 Y155.496 E.15513
G1 X150.87 Y156.031 E.01614
G1 X153.969 Y159.13 E.1323
G1 X153.434 Y159.13 E.01614
G1 X150.87 Y156.566 E.10947
G1 X150.87 Y157.101 E.01614
G1 X152.899 Y159.13 E.08664
G1 X152.365 Y159.13 E.01614
G1 X150.87 Y157.635 E.06381
G1 X150.87 Y158.17 E.01614
G1 X151.83 Y159.13 E.04098
G1 X151.295 Y159.13 E.01614
G1 X150.7 Y158.535 E.02539
G10 ; retract
G1 X165.7 Y162.305 F10800
G11 ; unretract
G1 F1200
G1 X177.526 Y174.13 E.50483
G1 X176.991 Y174.13 E.01614
G1 X165.87 Y163.009 E.47475
G1 X165.87 Y163.544 E.01614
G1 X176.456 Y174.13 E.45192
G1 X175.921 Y174.13 E.01614
G1 X165.87 Y164.079 E.42909
G1 X165.87 Y164.614 E.01614
G1 X175.387 Y174.13 E.40626
G1 X174.852 Y174.13 E.01614
G1 X165.87 Y165.148 E.38343
G1 X165.87 Y165.683 E.01614
G1 X174.317 Y174.13 E.3606
G1 X173.782 Y174.13 E.01614
G1 X165.87 Y166.218 E.33777
G1 X165.87 Y166.753 E.01614
G1 X173.247 Y174.13 E.31494
G1 X172.713 Y174.13 E.01614
G1 X165.87 Y167.287 E.29211
G1 X165.87 Y167.822 E.01614
G1 X172.178 Y174.13 E.26928
G1 X171.643 Y174.13 E.01614
G1 X165.87 Y168.357 E.24645
G1 X165.87 Y168.892 E.01614
G1 X171.108 Y174.13 E.22362
G1 X170.573 Y174.13 E.01614
G1 X165.87 Y169.427 E.20079
G1 X165.87 Y169.961 E.01614
G1 X170.039 Y174.13 E.17796
G1 X169.504 Y174.13 E.01614
G1 X165.87 Y170.496 E.15513
G1 X165.87 Y171.031 E.01614
G1 X168.969 Y174.13 E.1323
G1 X168.434 Y174.13 E.01614
G1 X165.87 Y171.566 E.10947
G1 X165.87 Y172.101 E.01614
G1 X167.899 Y174.13 E.08664
G1 X167.365 Y174.13 E.01614
G1 X165.87 Y172.635 E.06381
G1 X165.87 Y173.17 E.01614
G1 X166.83 Y174.13 E.04098
G1 X166.295 Y174.13 E.01614
G1 X165.7 Y173.535 E.02539
G10 ; retract
M107
;TYPE:Custom
; Filament-specific end gcode
; Filament-specific end gcode
M106 S0 ; turn off cooling fan
G10 P0 S0 R0
G10 P1 S0 R0
M140 S0; turn off bed
;Drop the bed
G91
