; generated by PrusaSlicer 2.4.2+win64 on 2022-05-18 at 18:58:16 UTC


;
;
; 

; external perimeters extrusion width = 0.45mm
; perimeters extrusion width = 0.45mm
; infill extrusion width = 0.45mm
; solid infill extrusion width = 0.45mm
; top infill extrusion width = 0.40mm
; first layer extrusion width = 0.42mm

M107
M190 S60 ; set bed temperature and wait for it to be reached
;TYPE:Custom
;Begin Start GCode

;set temps
G10 P0 S0
G10 P0 R0
G10 P1 S210
G10 P1 R170

G28 ;home all axis
G29 S1 ;enable mesh

 
T1


M116 ;Wait for all temps

G90
M98 P"prime.g"
;End Start GCode
G21 ; set units to millimeters
G90 ; use absolute coordinates
M83 ; use relative distances for extrusion
;T1
T1
; Filament-specific start gcode
M703
M107
;LAYER_CHANGE
;Z:0.2
;HEIGHT:0.2
;BEFORE_LAYER_CHANGE
G92 E0.0
;0.2

G10 ; retract
G1 Z.2 F10800
;AFTER_LAYER_CHANGE
;0.2
M800 F"layer"
G1 X148.015 Y143.693
G11 ; unretract
M204 P1000
;TYPE:Skirt/Brim
;WIDTH:0.42
G1 F1200
G1 X149.06 Y142.817 E.04107
G1 X150 Y142.623 E.02888
G1 X180 Y142.623 E.903
G1 X181.307 Y143.015 E.04107
G1 X182.183 Y144.06 E.04107
G1 X182.377 Y145 E.02888
G1 X182.377 Y175 E.903
G1 X181.985 Y176.307 E.04107
G1 X180.94 Y177.183 E.04107
G1 X180 Y177.377 E.02888
G1 X150 Y177.377 E.903
G1 X148.693 Y176.985 E.04107
G1 X147.817 Y175.94 E.04107
G1 X147.623 Y175 E.02888
G1 X147.623 Y145 E.903
G1 X147.997 Y143.75 E.03926
G10 ; retract
G1 X150.787 Y145.787 F10800
G11 ; unretract
;TYPE:Perimeter
G1 F1200
G1 X179.213 Y145.787 E.85562
G1 X179.213 Y174.213 E.85562
G1 X150.787 Y174.213 E.85562
G1 X150.787 Y145.847 E.85382
G1 X150.41 Y145.41 F10800
;TYPE:External perimeter
G1 F1200
G1 X179.59 Y145.41 E.87832
G1 X179.59 Y174.59 E.87832
G1 X150.41 Y174.59 E.87832
G1 X150.41 Y145.47 E.87652
G1 X150.796 Y145.514 F10800
G10 ; retract
G1 X178.331 Y145.9
G11 ; unretract
;TYPE:Solid infill
;WIDTH:0.42324
G1 F1200
G1 X178.93 Y146.5 E.02574
G1 X178.93 Y147.038 E.01633
G1 X177.962 Y146.07 E.04154
G1 X177.425 Y146.07 E.01633
G1 X178.93 Y147.575 E.06464
G1 X178.93 Y148.113 E.01633
G1 X176.887 Y146.07 E.08773
G1 X176.349 Y146.07 E.01633
G1 X178.93 Y148.651 E.11082
G1 X178.93 Y149.189 E.01633
G1 X175.811 Y146.07 E.13391
G1 X175.273 Y146.07 E.01633
G1 X178.93 Y149.727 E.157
G1 X178.93 Y150.265 E.01633
G1 X174.735 Y146.07 E.1801
G1 X174.198 Y146.07 E.01633
G1 X178.93 Y150.802 E.20319
G1 X178.93 Y151.34 E.01633
G1 X173.66 Y146.07 E.22628
G1 X173.122 Y146.07 E.01633
G1 X178.93 Y151.878 E.24937
G1 X178.93 Y152.416 E.01633
G1 X172.584 Y146.07 E.27247
G1 X172.046 Y146.07 E.01633
G1 X178.93 Y152.954 E.29556
G1 X178.93 Y153.492 E.01633
G1 X171.508 Y146.07 E.31865
G1 X170.97 Y146.07 E.01633
G1 X178.93 Y154.03 E.34174
G1 X178.93 Y154.567 E.01633
G1 X170.433 Y146.07 E.36483
G1 X169.895 Y146.07 E.01633
G1 X178.93 Y155.105 E.38793
G1 X178.93 Y155.643 E.01633
G1 X169.357 Y146.07 E.41102
G1 X168.819 Y146.07 E.01633
G1 X178.93 Y156.181 E.43411
G1 X178.93 Y156.719 E.01633
G1 X168.281 Y146.07 E.4572
G1 X167.743 Y146.07 E.01633
G1 X178.93 Y157.257 E.48029
G1 X178.93 Y157.795 E.01633
G1 X167.205 Y146.07 E.50339
G1 X166.668 Y146.07 E.01633
G1 X178.93 Y158.332 E.52648
G1 X178.93 Y158.87 E.01633
G1 X166.13 Y146.07 E.54957
G1 X165.592 Y146.07 E.01633
G1 X178.93 Y159.408 E.57266
G1 X178.93 Y159.946 E.01633
G1 X165.054 Y146.07 E.59575
G1 X164.516 Y146.07 E.01633
G1 X178.93 Y160.484 E.61885
G1 X178.93 Y161.022 E.01633
G1 X163.978 Y146.07 E.64194
G1 X163.44 Y146.07 E.01633
G1 X178.93 Y161.56 E.66503
G1 X178.93 Y162.097 E.01633
G1 X162.903 Y146.07 E.68812
G1 X162.365 Y146.07 E.01633
G1 X178.93 Y162.635 E.71122
G1 X178.93 Y163.173 E.01633
G1 X161.827 Y146.07 E.73431
G1 X161.289 Y146.07 E.01633
G1 X178.93 Y163.711 E.7574
G1 X178.93 Y164.249 E.01633
G1 X160.751 Y146.07 E.78049
G1 X160.213 Y146.07 E.01633
G1 X178.93 Y164.787 E.80358
G1 X178.93 Y165.325 E.01633
G1 X159.675 Y146.07 E.82668
G1 X159.138 Y146.07 E.01633
G1 X178.93 Y165.862 E.84977
G1 X178.93 Y166.4 E.01633
G1 X158.6 Y146.07 E.87286
G1 X158.062 Y146.07 E.01633
G1 X178.93 Y166.938 E.89595
G1 X178.93 Y167.476 E.01633
G1 X157.524 Y146.07 E.91904
G1 X156.986 Y146.07 E.01633
G1 X178.93 Y168.014 E.94214
G1 X178.93 Y168.552 E.01633
G1 X156.448 Y146.07 E.96523
G1 X155.91 Y146.07 E.01633
G1 X178.93 Y169.09 E.98832
G1 X178.93 Y169.627 E.01633
G1 X155.373 Y146.07 E1.01141
G1 X154.835 Y146.07 E.01633
G1 X178.93 Y170.165 E1.0345
G1 X178.93 Y170.703 E.01633
G1 X154.297 Y146.07 E1.0576
G1 X153.759 Y146.07 E.01633
G1 X178.93 Y171.241 E1.08069
G1 X178.93 Y171.779 E.01633
G1 X153.221 Y146.07 E1.10378
G1 X152.683 Y146.07 E.01633
G1 X178.93 Y172.317 E1.12687
G1 X178.93 Y172.854 E.01633
G1 X152.146 Y146.07 E1.14997
G1 X151.608 Y146.07 E.01633
G1 X178.93 Y173.392 E1.17306
G1 X178.93 Y173.93 E.01633
G1 X151.07 Y146.07 E1.19615
G1 X151.07 Y146.608 E.01633
G1 X178.392 Y173.93 E1.17305
G1 X177.854 Y173.93 E.01633
G1 X151.07 Y147.146 E1.14996
G1 X151.07 Y147.684 E.01633
G1 X177.317 Y173.93 E1.12687
G1 X176.779 Y173.93 E.01633
G1 X151.07 Y148.221 E1.10378
G1 X151.07 Y148.759 E.01633
G1 X176.241 Y173.93 E1.08068
G1 X175.703 Y173.93 E.01633
G1 X151.07 Y149.297 E1.05759
G1 X151.07 Y149.835 E.01633
G1 X175.165 Y173.93 E1.0345
G1 X174.627 Y173.93 E.01633
G1 X151.07 Y150.373 E1.01141
G1 X151.07 Y150.911 E.01633
G1 X174.089 Y173.93 E.98831
G1 X173.552 Y173.93 E.01633
G1 X151.07 Y151.448 E.96522
G1 X151.07 Y151.986 E.01633
G1 X173.014 Y173.93 E.94213
G1 X172.476 Y173.93 E.01633
G1 X151.07 Y152.524 E.91904
G1 X151.07 Y153.062 E.01633
G1 X171.938 Y173.93 E.89595
G1 X171.4 Y173.93 E.01633
G1 X151.07 Y153.6 E.87285
G1 X151.07 Y154.138 E.01633
G1 X170.862 Y173.93 E.84976
G1 X170.324 Y173.93 E.01633
G1 X151.07 Y154.676 E.82667
G1 X151.07 Y155.213 E.01633
G1 X169.787 Y173.93 E.80358
G1 X169.249 Y173.93 E.01633
G1 X151.07 Y155.751 E.78049
G1 X151.07 Y156.289 E.01633
G1 X168.711 Y173.93 E.75739
G1 X168.173 Y173.93 E.01633
G1 X151.07 Y156.827 E.7343
G1 X151.07 Y157.365 E.01633
G1 X167.635 Y173.93 E.71121
G1 X167.097 Y173.93 E.01633
G1 X151.07 Y157.903 E.68812
G1 X151.07 Y158.441 E.01633
G1 X166.559 Y173.93 E.66503
G1 X166.022 Y173.93 E.01633
G1 X151.07 Y158.978 E.64193
G1 X151.07 Y159.516 E.01633
G1 X165.484 Y173.93 E.61884
G1 X164.946 Y173.93 E.01633
G1 X151.07 Y160.054 E.59575
G1 X151.07 Y160.592 E.01633
G1 X164.408 Y173.93 E.57266
G1 X163.87 Y173.93 E.01633
G1 X151.07 Y161.13 E.54956
G1 X151.07 Y161.668 E.01633
G1 X163.332 Y173.93 E.52647
G1 X162.794 Y173.93 E.01633
G1 X151.07 Y162.206 E.50338
G1 X151.07 Y162.743 E.01633
G1 X162.257 Y173.93 E.48029
G1 X161.719 Y173.93 E.01633
G1 X151.07 Y163.281 E.4572
G1 X151.07 Y163.819 E.01633
G1 X161.181 Y173.93 E.4341
G1 X160.643 Y173.93 E.01633
G1 X151.07 Y164.357 E.41101
G1 X151.07 Y164.895 E.01633
G1 X160.105 Y173.93 E.38792
G1 X159.567 Y173.93 E.01633
G1 X151.07 Y165.433 E.36483
G1 X151.07 Y165.971 E.01633
G1 X159.029 Y173.93 E.34174
G1 X158.492 Y173.93 E.01633
G1 X151.07 Y166.508 E.31864
G1 X151.07 Y167.046 E.01633
G1 X157.954 Y173.93 E.29555
G1 X157.416 Y173.93 E.01633
G1 X151.07 Y167.584 E.27246
G1 X151.07 Y168.122 E.01633
G1 X156.878 Y173.93 E.24937
G1 X156.34 Y173.93 E.01633
G1 X151.07 Y168.66 E.22628
G1 X151.07 Y169.198 E.01633
G1 X155.802 Y173.93 E.20318
G1 X155.264 Y173.93 E.01633
G1 X151.07 Y169.736 E.18009
G1 X151.07 Y170.273 E.01633
G1 X154.727 Y173.93 E.157
G1 X154.189 Y173.93 E.01633
G1 X151.07 Y170.811 E.13391
G1 X151.07 Y171.349 E.01633
G1 X153.651 Y173.93 E.11081
G1 X153.113 Y173.93 E.01633
G1 X151.07 Y171.887 E.08772
G1 X151.07 Y172.425 E.01633
G1 X152.575 Y173.93 E.06463
G1 X152.037 Y173.93 E.01633
G1 X151.07 Y172.963 E.04154
G1 X151.07 Y173.5 E.01633
G1 X151.669 Y174.1 E.02573
G10 ; retract
M107
;TYPE:Custom
; Filament-specific end gcode
M106 S0 ; turn off cooling fan
G10 P0 S0 R0
G10 P1 S0 R0
M140 S0; turn off bed
;Drop the bed
G91
G1 Z10 F1000
G90
M0
; filament used [mm] = 0, 74.63
; filament used [cm3] = 0, 0.18
; filament used [g] = 0, 0.22
; filament cost = 0, 0.01
; total filament used [g] = 0.22
; total filament cost = 0.01
; estimated printing time (normal mode) = 2m 9s

; prusaslicer_config = begin
; avoid_crossing_perimeters = 0
; avoid_crossing_perimeters_max_detour = 0
; bed_custom_model = G:\\Rancor\\Rancor\\PrusaSlicer\\BedModel.stl
; bed_custom_texture = G:\\Rancor\\Rancor\\PrusaSlicer\\BedTexture.png
; bed_shape = 0x0,330x0,330x320,0x320
; bed_temperature = 0,60
; before_layer_gcode = ;BEFORE_LAYER_CHANGE\nG92 E0.0\n;[layer_z]\n
; between_objects_gcode = 
; bottom_fill_pattern = monotonic
; bottom_solid_layers = 4
; bottom_solid_min_thickness = 0.5
; bridge_acceleration = 1000
; bridge_angle = 0
; bridge_fan_speed = 100,100
; bridge_flow_ratio = 0.95
; bridge_speed = 30
; brim_separation = 0
; brim_type = outer_only
; brim_width = 0
; clip_multipart_objects = 1
; color_change_gcode = M600
; complete_objects = 0
; cooling = 0,1
; cooling_tube_length = 5
; cooling_tube_retraction = 91.5
; default_acceleration = 1000
; default_filament_profile = ""
; default_print_profile = 
; deretract_speed = 0,0
; disable_fan_first_layers = 1,1
; dont_support_bridges = 1
; draft_shield = disabled
; duplicate_distance = 6
; elefant_foot_compensation = 0.2
; end_filament_gcode = ;"; Filament-specific end gcode"
; end_gcode = M106 S0 ; turn off cooling fan\nG10 P0 S0 R0\nG10 P1 S0 R0\nM140 S0; turn off bed\n;Drop the bed\nG91\nG1 Z10 F1000\nG90\nM0
; ensure_vertical_shell_thickness = 1
; external_perimeter_extrusion_width = 0.45
; external_perimeter_speed = 35
; external_perimeters_first = 0
; extra_loading_move = -2
; extra_perimeters = 0
; extruder_clearance_height = 20
; extruder_clearance_radius = 45
; extruder_colour = #FF8000;#0000FF
; extruder_offset = 0x0,0x0
; extrusion_axis = E
; extrusion_multiplier = 1,0.96
; extrusion_width = 0.45
; fan_always_on = 0,1
; fan_below_layer_time = 100,100
; filament_colour = #FF8000;#FF8000
; filament_cooling_final_speed = 3.4,3.4
; filament_cooling_initial_speed = 2.2,2.2
; filament_cooling_moves = 4,4
; filament_cost = 0,24.99
; filament_density = 0,1.24
; filament_diameter = 1.75,1.75
; filament_load_time = 0,0
; filament_loading_speed = 28,28
; filament_loading_speed_start = 3,3
; filament_max_volumetric_speed = 15,15
; filament_minimal_purge_on_wipe_tower = 15,15
; filament_notes = ;"Affordable filament for everyday printing in premium quality manufactured in-house by Josef Prusa"
; filament_ramming_parameters = "120 100 6.6 6.8 7.2 7.6 7.9 8.2 8.7 9.4 9.9 10.0| 0.05 6.6 0.45 6.8 0.95 7.8 1.45 8.3 1.95 9.7 2.45 10 2.95 7.6 3.45 7.6 3.95 7.6 4.45 7.6 4.95 7.6";"120 100| 0.05 6.6 0.45 6.8 0.95 7.8 1.45 8.3 1.95 9.7 2.45 10 2.95 7.6 3.45 7.6 3.95 7.6 4.45 7.6 4.95 7.6"
; filament_settings_id = "-Extruder Off";"Prusament  PLA"
; filament_soluble = 0,0
; filament_spool_weight = 0,0
; filament_toolchange_delay = 0,0
; filament_type = PLA;PLA
; filament_unload_time = 0,0
; filament_unloading_speed = 90,90
; filament_unloading_speed_start = 100,100
; filament_vendor = Prusa Polymers
; fill_angle = 45
; fill_density = 20%
; fill_pattern = grid
; first_layer_acceleration = 1000
; first_layer_acceleration_over_raft = 0
; first_layer_bed_temperature = 0,60
; first_layer_extrusion_width = 0.42
; first_layer_height = 0.2
; first_layer_speed = 20
; first_layer_speed_over_raft = 30
; first_layer_temperature = 0,210
; full_fan_speed_layer = 0,0
; fuzzy_skin = none
; fuzzy_skin_point_dist = 0.8
; fuzzy_skin_thickness = 0.3
; gap_fill_enabled = 1
; gap_fill_speed = 40
; gcode_comments = 0
; gcode_flavor = reprapfirmware
; gcode_label_objects = 0
; gcode_resolution = 0.0125
; gcode_substitutions = 
; high_current_on_filament_swap = 0
; host_type = duet
; infill_acceleration = 1000
; infill_anchor = 600%
; infill_anchor_max = 50
; infill_every_layers = 1
; infill_extruder = 1
; infill_extrusion_width = 0.45
; infill_first = 0
; infill_only_where_needed = 0
; infill_overlap = 25%
; infill_speed = 200
; interface_shells = 0
; ironing = 0
; ironing_flowrate = 15%
; ironing_spacing = 0.1
; ironing_speed = 15
; ironing_type = top
; layer_gcode = ;AFTER_LAYER_CHANGE\n;[layer_z]\nM800 F"layer"
; layer_height = 0.2
; machine_limits_usage = time_estimate_only
; machine_max_acceleration_e = 1500,1500
; machine_max_acceleration_extruding = 1500,1500
; machine_max_acceleration_retracting = 1500,1500
; machine_max_acceleration_travel = 500,1250
; machine_max_acceleration_x = 500,500
; machine_max_acceleration_y = 500,500
; machine_max_acceleration_z = 100,100
; machine_max_feedrate_e = 60,60
; machine_max_feedrate_x = 180,180
; machine_max_feedrate_y = 180,180
; machine_max_feedrate_z = 15,15
; machine_max_jerk_e = 25,25
; machine_max_jerk_x = 6.7,6.7
; machine_max_jerk_y = 6.7,6.7
; machine_max_jerk_z = 1.7,1.7
; machine_min_extruding_rate = 0,0
; machine_min_travel_rate = 0,0
; max_fan_speed = 100,100
; max_layer_height = 0,0
; max_print_height = 601
; max_print_speed = 200
; max_volumetric_speed = 0
; min_fan_speed = 100,100
; min_layer_height = 0.07,0.07
; min_print_speed = 15,15
; min_skirt_length = 4
; mmu_segmented_region_max_width = 0
; notes = 
; nozzle_diameter = 0.4,0.4
; only_retract_when_crossing_perimeters = 0
; ooze_prevention = 0
; output_filename_format = {input_filename_base}_{filament_type[0]}-{filament_type[1]}.gcode
; overhangs = 0
; parking_pos_retraction = 92
; pause_print_gcode = M601
; perimeter_acceleration = 800
; perimeter_extruder = 1
; perimeter_extrusion_width = 0.45
; perimeter_speed = 60
; perimeters = 2
; physical_printer_settings_id = Printer 1
; post_process = 
; print_settings_id = 0.20mm SPEED
; printer_model = 
; printer_notes = 
; printer_settings_id = Rancor
; printer_technology = FFF
; printer_variant = 
; printer_vendor = 
; raft_contact_distance = 0.1
; raft_expansion = 1.5
; raft_first_layer_density = 90%
; raft_first_layer_expansion = 3
; raft_layers = 0
; remaining_times = 0
; resolution = 0
; retract_before_travel = 2,2
; retract_before_wipe = 70%,70%
; retract_layer_change = 1,1
; retract_length = 0.5,0.5
; retract_length_toolchange = 0,0
; retract_lift = 0,0
; retract_lift_above = 0,0
; retract_lift_below = 600,600
; retract_restart_extra = 0,0
; retract_restart_extra_toolchange = 0,0
; retract_speed = 40,40
; seam_position = nearest
; silent_mode = 1
; single_extruder_multi_material = 0
; single_extruder_multi_material_priming = 0
; skirt_distance = 2
; skirt_height = 3
; skirts = 1
; slice_closing_radius = 0.049
; slicing_mode = regular
; slowdown_below_layer_time = 20,20
; small_perimeter_speed = 25
; solid_infill_below_area = 0
; solid_infill_every_layers = 0
; solid_infill_extruder = 1
; solid_infill_extrusion_width = 0.45
; solid_infill_speed = 200
; spiral_vase = 0
; standby_temperature_delta = 170
; start_filament_gcode = ;"; Filament-specific start gcode\nM703"
; start_gcode = ;Begin Start GCode\n\n;set temps\nG10 P0 S{temperature[0]}\nG10 P0 R{if temperature[0] == 0}0{else}{temperature[0] - 40}{endif}\nG10 P1 S{temperature[1]}\nG10 P1 R{if temperature[1] == 0}0{else}{temperature[1] - 40}{endif}\n\nG28 ;home all axis\nG29 S1 ;enable mesh\n\n{ if current_extruder == 0 }\nT0\n{ elsif current_extruder == 1 } \nT1\n{ endif }\n\nM116 ;Wait for all temps\n\nG90\nM98 P"prime.g"\n;End Start GCode
; support_material = 0
; support_material_angle = 0
; support_material_auto = 1
; support_material_bottom_contact_distance = 0
; support_material_bottom_interface_layers = -1
; support_material_buildplate_only = 0
; support_material_closing_radius = 2
; support_material_contact_distance = 0.1
; support_material_enforce_layers = 0
; support_material_extruder = 0
; support_material_extrusion_width = 0.35
; support_material_interface_contact_loops = 0
; support_material_interface_extruder = 0
; support_material_interface_layers = 2
; support_material_interface_pattern = rectilinear
; support_material_interface_spacing = 0.2
; support_material_interface_speed = 100%
; support_material_pattern = rectilinear
; support_material_spacing = 2
; support_material_speed = 50
; support_material_style = grid
; support_material_synchronize_layers = 0
; support_material_threshold = 55
