; generated by PrusaSlicer 2.4.2+win64 on 2022-05-19 at 02:49:28 UTC


;
;
; 

; external perimeters extrusion width = 1.10mm
; perimeters extrusion width = 1.10mm
; infill extrusion width = 1.10mm
; solid infill extrusion width = 1.10mm
; top infill extrusion width = 1.00mm
; first layer extrusion width = 1.10mm

M107
M190 S60 ; set bed temperature and wait for it to be reached
;TYPE:Custom
;Begin Start GCode

;set temps
G10 P0 S210
G10 P0 R170
G10 P1 S0
G10 P1 R0

G28 ;home all axis
G29 S1 ;enable mesh


T0


M116 ;Wait for all temps

G90
M98 P"prime.g"
;End Start GCode
G21 ; set units to millimeters
G90 ; use absolute coordinates
M83 ; use relative distances for extrusion
; Filament-specific start gcode
M703
M107
;LAYER_CHANGE
;Z:0.5
;HEIGHT:0.5
;BEFORE_LAYER_CHANGE
G92 E0.0
;0.5

G10 ; retract
G1 Z.5 F720
;AFTER_LAYER_CHANGE
;0.5
M800 F"layer"
G1 X142.509 Y136.88 F10800
G11 ; unretract
M204 P800
;TYPE:Skirt/Brim
;WIDTH:1.1
G1 F1200
G1 X144.109 Y136.108 E.35183
G1 X145 Y136.007 E.17768
G1 X185 Y136.007 E7.92415
G1 X186.732 Y136.402 E.35183
G1 X188.12 Y137.509 E.35183
G1 X188.892 Y139.109 E.35183
G1 X188.993 Y140 E.17768
G1 X188.993 Y180 E7.92415
G1 X188.598 Y181.732 E.35183
G1 X187.491 Y183.12 E.35183
G1 X185.891 Y183.892 E.35183
G1 X185 Y183.993 E.17768
G1 X145 Y183.993 E7.92415
G1 X143.268 Y183.598 E.35183
G1 X141.88 Y182.491 E.35183
G1 X141.108 Y180.891 E.35183
G1 X141.007 Y180 E.17768
G1 X141.007 Y140 E7.92415
G1 X141.402 Y138.268 E.35183
G1 X142.416 Y136.997 E.32212
M204 P1000
; printing object Shape-Box id:0 copy 0
G10 ; retract
G1 X146.743 Y141.743 F10800
G11 ; unretract
M204 P800
;TYPE:Perimeter
G1 F1200
G1 X183.257 Y141.743 E7.23368
G1 X183.257 Y178.257 E7.23368
G1 X146.743 Y178.257 E7.23368
G1 X146.743 Y141.893 E7.20397
M204 P1000
G1 X145.75 Y140.75 F10800
M204 P800
;TYPE:External perimeter
G1 F1200
G1 X184.25 Y140.75 E7.627
G1 X184.25 Y179.25 E7.627
G1 X145.75 Y179.25 E7.627
G1 X145.75 Y140.9 E7.59728
M204 P1000
G1 X146.716 Y141.009 F10800
G10 ; retract
G1 X180.984 Y141.991
G11 ; unretract
M204 P800
;TYPE:Solid infill
;WIDTH:1.10883
G1 F1200
G1 X182.562 Y143.57 E.44621
G1 X182.562 Y144.986 E.28308
G1 X180.014 Y142.438 E.72028
G1 X178.598 Y142.438 E.28308
G1 X182.562 Y146.402 E1.12063
G1 X182.562 Y147.819 E.28308
G1 X177.181 Y142.438 E1.52097
G1 X175.765 Y142.438 E.28308
G1 X182.562 Y149.235 E1.92131
G1 X182.562 Y150.651 E.28308
G1 X174.349 Y142.438 E2.32165
G1 X172.932 Y142.438 E.28308
G1 X182.562 Y152.068 E2.72199
G1 X182.562 Y153.484 E.28308
G1 X171.516 Y142.438 E3.12233
G1 X170.1 Y142.438 E.28308
G1 X182.562 Y154.9 E3.52267
G1 X182.562 Y156.317 E.28308
G1 X168.683 Y142.438 E3.92302
G1 X167.267 Y142.438 E.28308
G1 X182.562 Y157.733 E4.32336
G1 X182.562 Y159.15 E.28308
G1 X165.85 Y142.438 E4.7237
G1 X164.434 Y142.438 E.28308
G1 X182.562 Y160.566 E5.12404
G1 X182.562 Y161.982 E.28308
G1 X163.018 Y142.438 E5.52438
G1 X161.601 Y142.438 E.28308
G1 X182.562 Y163.399 E5.92472
G1 X182.562 Y164.815 E.28308
G1 X160.185 Y142.438 E6.32506
G1 X158.769 Y142.438 E.28308
G1 X182.562 Y166.231 E6.72541
G1 X182.562 Y167.648 E.28308
G1 X157.352 Y142.438 E7.12575
G1 X155.936 Y142.438 E.28308
G1 X182.562 Y169.064 E7.52609
G1 X182.562 Y170.481 E.28308
G1 X154.519 Y142.438 E7.92643
G1 X153.103 Y142.438 E.28308
G1 X182.562 Y171.897 E8.32677
G1 X182.562 Y173.313 E.28308
G1 X151.687 Y142.438 E8.72711
G1 X150.27 Y142.438 E.28308
G1 X182.562 Y174.73 E9.12746
G1 X182.562 Y176.146 E.28308
G1 X148.854 Y142.438 E9.5278
G1 X147.438 Y142.438 E.28308
G1 X182.562 Y177.562 E9.92812
G1 X181.146 Y177.562 E.28308
G1 X147.438 Y143.854 E9.52777
G1 X147.438 Y145.27 E.28308
G1 X179.73 Y177.562 E9.12743
G1 X178.313 Y177.562 E.28308
G1 X147.438 Y146.687 E8.72709
G1 X147.438 Y148.103 E.28308
G1 X176.897 Y177.562 E8.32675
G1 X175.481 Y177.562 E.28308
G1 X147.438 Y149.519 E7.92641
G1 X147.438 Y150.936 E.28308
G1 X174.064 Y177.562 E7.52607
G1 X172.648 Y177.562 E.28308
G1 X147.438 Y152.352 E7.12573
G1 X147.438 Y153.769 E.28308
G1 X171.231 Y177.562 E6.72538
G1 X169.815 Y177.562 E.28308
G1 X147.438 Y155.185 E6.32504
G1 X147.438 Y156.601 E.28308
G1 X168.399 Y177.562 E5.9247
G1 X166.982 Y177.562 E.28308
G1 X147.438 Y158.018 E5.52436
G1 X147.438 Y159.434 E.28308
G1 X165.566 Y177.562 E5.12402
G1 X164.15 Y177.562 E.28308
G1 X147.438 Y160.85 E4.72368
G1 X147.438 Y162.267 E.28308
G1 X162.733 Y177.562 E4.32334
G1 X161.317 Y177.562 E.28308
G1 X147.438 Y163.683 E3.92299
G1 X147.438 Y165.1 E.28308
G1 X159.9 Y177.562 E3.52265
G1 X158.484 Y177.562 E.28308
G1 X147.438 Y166.516 E3.12231
G1 X147.438 Y167.932 E.28308
G1 X157.068 Y177.562 E2.72197
G1 X155.651 Y177.562 E.28308
G1 X147.438 Y169.349 E2.32163
G1 X147.438 Y170.765 E.28308
G1 X154.235 Y177.562 E1.92129
G1 X152.819 Y177.562 E.28308
G1 X147.438 Y172.181 E1.52095
G1 X147.438 Y173.598 E.28308
G1 X151.402 Y177.562 E1.1206
G1 X149.986 Y177.562 E.28308
G1 X147.438 Y175.014 E.72026
G1 X147.438 Y176.431 E.28308
G1 X149.016 Y178.009 E.44619
M204 P1000
; stop printing object Shape-Box id:0 copy 0
G10 ; retract
M107
;TYPE:Custom
; Filament-specific end gcode
M106 S0 ; turn off cooling fan
G10 P0 S0 R0
G10 P1 S0 R0
M140 S0; turn off bed
;Drop the bed
G91
G1 Z10 F1000
G90
M0
; filament used [mm] = 356.10
; filament used [cm3] = 0.86
; filament used [g] = 1.06
; filament cost = 0.03
; total filament used [g] = 1.06
; total filament cost = 0.03
; estimated printing time (normal mode) = 1m 33s

; prusaslicer_config = begin
; avoid_crossing_perimeters = 0
; avoid_crossing_perimeters_max_detour = 0
; bed_custom_model = G:\\Rancor\\Rancor\\PrusaSlicer\\BedModel.stl
; bed_custom_texture = G:\\Rancor\\Rancor\\PrusaSlicer\\BedTexture.png
; bed_shape = 0x0,330x0,330x320,0x320
; bed_temperature = 60,0
; before_layer_gcode = ;BEFORE_LAYER_CHANGE\nG92 E0.0\n;[layer_z]\n
; between_objects_gcode = 
; bottom_fill_pattern = monotonic
; bottom_solid_layers = 3
; bottom_solid_min_thickness = 0.8
; bridge_acceleration = 1000
; bridge_angle = 0
; bridge_fan_speed = 100,100
; bridge_flow_ratio = 0.9
; bridge_speed = 22
; brim_separation = 0.1
; brim_type = outer_only
; brim_width = 0
; clip_multipart_objects = 1
; color_change_gcode = M600
; complete_objects = 0
; cooling = 1,0
; cooling_tube_length = 5
; cooling_tube_retraction = 91.5
; default_acceleration = 1000
; default_filament_profile = ""
; default_print_profile = 
; deretract_speed = 0,0
; disable_fan_first_layers = 1,1
; dont_support_bridges = 0
; draft_shield = disabled
; duplicate_distance = 6
; elefant_foot_compensation = 0.2
; end_filament_gcode = "; Filament-specific end gcode";
; end_gcode = M106 S0 ; turn off cooling fan\nG10 P0 S0 R0\nG10 P1 S0 R0\nM140 S0; turn off bed\n;Drop the bed\nG91\nG1 Z10 F1000\nG90\nM0
; ensure_vertical_shell_thickness = 1
; external_perimeter_extrusion_width = 1.1
; external_perimeter_speed = 25
; external_perimeters_first = 0
; extra_loading_move = -2
; extra_perimeters = 0
; extruder_clearance_height = 20
; extruder_clearance_radius = 45
; extruder_colour = #FF8000;#0000FF
; extruder_offset = 0x0,0x0
; extrusion_axis = E
; extrusion_multiplier = 0.96,1
; extrusion_width = 1.1
; fan_always_on = 1,0
; fan_below_layer_time = 100,100
; filament_colour = #FF8000;#FF8000
; filament_cooling_final_speed = 3.4,3.4
; filament_cooling_initial_speed = 2.2,2.2
; filament_cooling_moves = 4,4
; filament_cost = 24.99,0
; filament_density = 1.24,0
; filament_diameter = 1.75,1.75
; filament_load_time = 0,0
; filament_loading_speed = 28,28
; filament_loading_speed_start = 3,3
; filament_max_volumetric_speed = 15,15
; filament_minimal_purge_on_wipe_tower = 15,15
; filament_notes = "Affordable filament for everyday printing in premium quality manufactured in-house by Josef Prusa";
; filament_ramming_parameters = "120 100| 0.05 6.6 0.45 6.8 0.95 7.8 1.45 8.3 1.95 9.7 2.45 10 2.95 7.6 3.45 7.6 3.95 7.6 4.45 7.6 4.95 7.6";"120 100 6.6 6.8 7.2 7.6 7.9 8.2 8.7 9.4 9.9 10.0| 0.05 6.6 0.45 6.8 0.95 7.8 1.45 8.3 1.95 9.7 2.45 10 2.95 7.6 3.45 7.6 3.95 7.6 4.45 7.6 4.95 7.6"
; filament_settings_id = PLA;!Off
; filament_soluble = 0,0
; filament_spool_weight = 0,0
; filament_toolchange_delay = 0,0
; filament_type = PLA;PLA
; filament_unload_time = 0,0
; filament_unloading_speed = 90,90
; filament_unloading_speed_start = 100,100
; filament_vendor = Prusa Polymers
; fill_angle = 45
; fill_density = 15%
; fill_pattern = grid
; first_layer_acceleration = 800
; first_layer_acceleration_over_raft = 0
; first_layer_bed_temperature = 60,0
; first_layer_extrusion_width = 1.1
; first_layer_height = 0.5
; first_layer_speed = 20
; first_layer_speed_over_raft = 30
; first_layer_temperature = 210,0
; full_fan_speed_layer = 0,0
; fuzzy_skin = none
; fuzzy_skin_point_dist = 0.8
; fuzzy_skin_thickness = 0.3
; gap_fill_enabled = 1
; gap_fill_speed = 30
; gcode_comments = 0
; gcode_flavor = reprapfirmware
; gcode_label_objects = 1
; gcode_resolution = 0.0125
; gcode_substitutions = 
; high_current_on_filament_swap = 0
; host_type = duet
; infill_acceleration = 1000
; infill_anchor = 2.5
; infill_anchor_max = 20
; infill_every_layers = 1
; infill_extruder = 1
; infill_extrusion_width = 1.1
; infill_first = 0
; infill_only_where_needed = 0
; infill_overlap = 30%
; infill_speed = 50
; interface_shells = 0
; ironing = 0
; ironing_flowrate = 15%
; ironing_spacing = 0.1
; ironing_speed = 15
; ironing_type = top
; layer_gcode = ;AFTER_LAYER_CHANGE\n;[layer_z]\nM800 F"layer"
; layer_height = 0.5
; machine_limits_usage = time_estimate_only
; machine_max_acceleration_e = 1500,1500
; machine_max_acceleration_extruding = 1500,1500
; machine_max_acceleration_retracting = 1500,1500
; machine_max_acceleration_travel = 500,1250
; machine_max_acceleration_x = 500,500
; machine_max_acceleration_y = 500,500
; machine_max_acceleration_z = 100,100
; machine_max_feedrate_e = 60,60
; machine_max_feedrate_x = 180,180
; machine_max_feedrate_y = 180,180
; machine_max_feedrate_z = 15,15
; machine_max_jerk_e = 25,25
; machine_max_jerk_x = 6.7,6.7
; machine_max_jerk_y = 6.7,6.7
; machine_max_jerk_z = 1.7,1.7
; machine_min_extruding_rate = 0,0
; machine_min_travel_rate = 0,0
; max_fan_speed = 100,100
; max_layer_height = 0,0
; max_print_height = 601
; max_print_speed = 50
; max_volumetric_speed = 0
; min_fan_speed = 100,100
; min_layer_height = 0.07,0.07
; min_print_speed = 15,15
; min_skirt_length = 4
; mmu_segmented_region_max_width = 0
; notes = 
; nozzle_diameter = 1,1
; only_retract_when_crossing_perimeters = 0
; ooze_prevention = 0
; output_filename_format = {input_filename_base}_T0-{filament_preset[0]}_T1-{filament_preset[1]}.gcode
; overhangs = 0
; parking_pos_retraction = 92
; pause_print_gcode = M601
; perimeter_acceleration = 800
; perimeter_extruder = 1
; perimeter_extrusion_width = 1.1
; perimeter_speed = 35
; perimeters = 2
; physical_printer_settings_id = Printer 1
; post_process = 
; print_settings_id = N1.0 0.50mm SPEED
; printer_model = 
; printer_notes = 
; printer_settings_id = Rancor
; printer_technology = FFF
; printer_variant = 
; printer_vendor = 
; raft_contact_distance = 0.2
; raft_expansion = 1.5
; raft_first_layer_density = 90%
; raft_first_layer_expansion = 3
; raft_layers = 0
; remaining_times = 0
; resolution = 0
; retract_before_travel = 2,2
; retract_before_wipe = 70%,70%
; retract_layer_change = 1,1
; retract_length = 0.5,0.5
; retract_length_toolchange = 0,0
; retract_lift = 0,0
; retract_lift_above = 0,0
; retract_lift_below = 600,600
; retract_restart_extra = 0,0
; retract_restart_extra_toolchange = 0,0
; retract_speed = 40,40
; seam_position = nearest
; silent_mode = 1
; single_extruder_multi_material = 0
; single_extruder_multi_material_priming = 0
; skirt_distance = 3
; skirt_height = 2
; skirts = 1
; slice_closing_radius = 0.049
; slicing_mode = regular
; slowdown_below_layer_time = 20,20
; small_perimeter_speed = 25
; solid_infill_below_area = 0
; solid_infill_every_layers = 0
; solid_infill_extruder = 1
; solid_infill_extrusion_width = 1.1
; solid_infill_speed = 45
; spiral_vase = 0
; standby_temperature_delta = 170
; start_filament_gcode = "; Filament-specific start gcode\nM703";
; start_gcode = ;Begin Start GCode\n\n;set temps\nG10 P0 S{temperature[0]}\nG10 P0 R{if temperature[0] == 0}0{else}{temperature[0] - 40}{endif}\nG10 P1 S{temperature[1]}\nG10 P1 R{if temperature[1] == 0}0{else}{temperature[1] - 40}{endif}\n\nG28 ;home all axis\nG29 S1 ;enable mesh\n\n{ if current_extruder == 0 }\nT0\n{ elsif current_extruder == 1 } \nT1\n{ endif }\n\nM116 ;Wait for all temps\n\nG90\nM98 P"prime.g"\n;End Start GCode
; support_material = 0
; support_material_angle = 0
; support_material_auto = 1
; support_material_bottom_contact_distance = 0
; support_material_bottom_interface_layers = 0
; support_material_buildplate_only = 0
; support_material_closing_radius = 2
; support_material_contact_distance = 0.25
; support_material_enforce_layers = 0
; support_material_extruder = 0
; support_material_extrusion_width = 0.7
; support_material_interface_contact_loops = 0
; support_material_interface_extruder = 0
; support_material_interface_layers = 2
; support_material_interface_pattern = rectilinear
; support_material_interface_spacing = 0.4
; support_material_interface_speed = 100%
; support_material_pattern = rectilinear
; support_material_spacing = 2
; support_material_speed = 40
; support_material_style = grid
; support_material_synchronize_layers = 0
; support_material_threshold = 50
; support_material_with_sheath = 0
; support_material_xy_spacing = 80%
; temperature = 210,0
; template_custom_gcode = 
; thick_bridges = 1
; thin_walls = 0
; threads = 32
; thumbnails = 128x128
; toolchange_gcode = ;T[next_extruder]
; top_fill_pattern = monotonic
; top_infill_extrusion_width = 1
; top_solid_infill_speed = 35
; top_solid_layers = 4
; top_solid_min_thickness = 1.2
; travel_speed = 180
; travel_speed_z = 12
; use_firmware_retraction = 1
; use_relative_e_distances = 1
; use_volumetric_e = 0
; variable_layer_height = 1
; wipe = 0,0
; wipe_into_infill = 0
; wipe_into_objects = 0
; wipe_tower = 0
; wipe_tower_bridging = 10
; wipe_tower_brim_width = 2
; wipe_tower_no_sparse_layers = 0
; wipe_tower_rotation_angle = 0
; wipe_tower_width = 60
; wipe_tower_x = 170
; wipe_tower_y = 140
; wiping_volumes_extruders = 70,70,70,70
; wiping_volumes_matrix = 0,140,140,0
; xy_size_compensation = 0
; z_offset = 0
; prusaslicer_config = end
