; generated by PrusaSlicer 2.4.2+win64 on 2022-05-19 at 02:52:02 UTC


;
;
; 

; external perimeters extrusion width = 1.80mm
; perimeters extrusion width = 1.80mm
; infill extrusion width = 1.80mm
; solid infill extrusion width = 1.80mm
; top infill extrusion width = 1.80mm
; first layer extrusion width = 1.80mm

M107
M190 S60 ; set bed temperature and wait for it to be reached
;TYPE:Custom
;Begin Start GCode

;set temps
G10 P0 S210
G10 P0 R170
G10 P1 S0
G10 P1 R0

G28 ;home all axis
G29 S1 ;enable mesh


T0


M116 ;Wait for all temps

G90
M98 P"prime.g"
;End Start GCode
G21 ; set units to millimeters
G90 ; use absolute coordinates
M83 ; use relative distances for extrusion
; Filament-specific start gcode
M703
M107
;LAYER_CHANGE
;Z:0.9
;HEIGHT:0.9
;BEFORE_LAYER_CHANGE
G92 E0.0
;0.9

G10 ; retract
G1 Z.9 F10800
;AFTER_LAYER_CHANGE
;0.9
M800 F"layer"
G1 X142.885 Y137.079
G11 ; unretract
M204 P1000
;TYPE:Skirt/Brim
;WIDTH:1.8
G1 F622.332
G1 X145 Y136.393 E1.28345
G1 X185 Y136.393 E23.08795
G1 X186.64 Y136.788 E.97365
G1 X187.921 Y137.885 E.97365
G1 X188.607 Y140 E1.28345
G1 X188.607 Y180 E23.08795
G1 X188.212 Y181.64 E.97365
G1 X187.115 Y182.921 E.97365
G1 X185 Y183.607 E1.28345
G1 X145 Y183.607 E23.08795
G1 X143.36 Y183.212 E.97365
G1 X142.079 Y182.115 E.97365
G1 X141.393 Y180 E1.28345
G1 X141.393 Y140 E23.08795
G1 X141.788 Y138.36 E.97365
G1 X142.709 Y137.284 E.81781
G10 ; retract
G1 X147.707 Y142.707 F10800
G11 ; unretract
;TYPE:Perimeter
G1 F622.332
G1 X182.293 Y142.707 E19.96316
G1 X182.293 Y177.293 E19.96316
G1 X147.707 Y177.293 E19.96316
G1 X147.707 Y142.977 E19.80732
G10 ; retract
G1 X146.1 Y141.1 F10800
G11 ; unretract
;TYPE:External perimeter
G1 F622.332
G1 X183.9 Y141.1 E21.81811
G1 X183.9 Y178.9 E21.81811
G1 X146.1 Y178.9 E21.81811
G1 X146.1 Y141.37 E21.66227
G1 X147.839 Y141.566 F10800
G10 ; retract
G1 X178.477 Y143.189
G11 ; unretract
;TYPE:Solid infill
;WIDTH:1.8406
G1 F606.997
G1 X181.088 Y145.8 E2.18523
G1 X181.088 Y148.13 E1.37876
G1 X176.87 Y143.912 E3.52994
G1 X174.54 Y143.912 E1.37876
G1 X181.088 Y150.46 E5.4798
G1 X181.088 Y152.79 E1.37876
G1 X172.21 Y143.912 E7.42967
G1 X169.881 Y143.912 E1.37876
G1 X181.088 Y155.119 E9.37954
G1 X181.088 Y157.449 E1.37876
G1 X167.551 Y143.912 E11.3294
G1 X165.221 Y143.912 E1.37876
G1 X181.088 Y159.779 E13.27927
G1 X181.088 Y162.109 E1.37876
G1 X162.891 Y143.912 E15.22914
G1 X160.561 Y143.912 E1.37876
G1 X181.088 Y164.439 E17.179
G1 X181.088 Y166.769 E1.37876
G1 X158.231 Y143.912 E19.12887
G1 X155.901 Y143.912 E1.37876
G1 X181.088 Y169.099 E21.07874
G1 X181.088 Y171.428 E1.37876
G1 X153.572 Y143.912 E23.0286
G1 X151.242 Y143.912 E1.37876
G1 X181.088 Y173.758 E24.97847
G1 X181.088 Y176.088 E1.37873
G1 X148.912 Y143.912 E26.92825
G1 X148.912 Y146.242 E1.37876
G1 X178.758 Y176.088 E24.97836
G1 X176.428 Y176.088 E1.37876
G1 X148.912 Y148.572 E23.02849
G1 X148.912 Y150.902 E1.37876
G1 X174.098 Y176.088 E21.07863
G1 X171.769 Y176.088 E1.37876
G1 X148.912 Y153.231 E19.12876
G1 X148.912 Y155.561 E1.37876
G1 X169.439 Y176.088 E17.17889
G1 X167.109 Y176.088 E1.37876
G1 X148.912 Y157.891 E15.22903
G1 X148.912 Y160.221 E1.37876
G1 X164.779 Y176.088 E13.27916
G1 X162.449 Y176.088 E1.37876
G1 X148.912 Y162.551 E11.32929
G1 X148.912 Y164.881 E1.37876
G1 X160.119 Y176.088 E9.37943
G1 X157.789 Y176.088 E1.37876
G1 X148.912 Y167.211 E7.42956
G1 X148.912 Y169.54 E1.37876
G1 X155.46 Y176.088 E5.47969
G1 X153.13 Y176.088 E1.37876
G1 X148.912 Y171.87 E3.52983
G1 X148.912 Y174.2 E1.37876
G1 X151.523 Y176.811 E2.18512
G10 ; retract
M107
;TYPE:Custom
; Filament-specific end gcode
M106 S0 ; turn off cooling fan
G10 P0 S0 R0
G10 P1 S0 R0
M140 S0; turn off bed
;Drop the bed
G91
G1 Z10 F1000
G90
M0
; filament used [mm] = 681.18
; filament used [cm3] = 1.64
; filament used [g] = 2.03
; filament cost = 0.05
; total filament used [g] = 2.03
; total filament cost = 0.05
; estimated printing time (normal mode) = 1m 56s

; prusaslicer_config = begin
; avoid_crossing_perimeters = 0
; avoid_crossing_perimeters_max_detour = 0
; bed_custom_model = G:\\Rancor\\Rancor\\PrusaSlicer\\BedModel.stl
; bed_custom_texture = G:\\Rancor\\Rancor\\PrusaSlicer\\BedTexture.png
; bed_shape = 0x0,330x0,330x320,0x320
; bed_temperature = 60,0
; before_layer_gcode = ;BEFORE_LAYER_CHANGE\nG92 E0.0\n;[layer_z]\n
; between_objects_gcode = 
; bottom_fill_pattern = monotonic
; bottom_solid_layers = 3
; bottom_solid_min_thickness = 0.5
; bridge_acceleration = 1000
; bridge_angle = 0
; bridge_fan_speed = 100,100
; bridge_flow_ratio = 0.95
; bridge_speed = 30
; brim_separation = 0
; brim_type = outer_only
; brim_width = 0
; clip_multipart_objects = 1
; color_change_gcode = M600
; complete_objects = 0
; cooling = 1,0
; cooling_tube_length = 5
; cooling_tube_retraction = 91.5
; default_acceleration = 1000
; default_filament_profile = ""
; default_print_profile = 
; deretract_speed = 0,0
; disable_fan_first_layers = 1,1
; dont_support_bridges = 1
; draft_shield = disabled
; duplicate_distance = 6
; elefant_foot_compensation = 0.2
; end_filament_gcode = "; Filament-specific end gcode";
; end_gcode = M106 S0 ; turn off cooling fan\nG10 P0 S0 R0\nG10 P1 S0 R0\nM140 S0; turn off bed\n;Drop the bed\nG91\nG1 Z10 F1000\nG90\nM0
; ensure_vertical_shell_thickness = 1
; external_perimeter_extrusion_width = 1.8
; external_perimeter_speed = 35
; external_perimeters_first = 0
; extra_loading_move = -2
; extra_perimeters = 0
; extruder_clearance_height = 20
; extruder_clearance_radius = 45
; extruder_colour = #FF8000;#0000FF
; extruder_offset = 0x0,0x0
; extrusion_axis = E
; extrusion_multiplier = 0.96,1
; extrusion_width = 1.8
; fan_always_on = 1,0
; fan_below_layer_time = 100,100
; filament_colour = #FF8000;#FF8000
; filament_cooling_final_speed = 3.4,3.4
; filament_cooling_initial_speed = 2.2,2.2
; filament_cooling_moves = 4,4
; filament_cost = 24.99,0
; filament_density = 1.24,0
; filament_diameter = 1.75,1.75
; filament_load_time = 0,0
; filament_loading_speed = 28,28
; filament_loading_speed_start = 3,3
; filament_max_volumetric_speed = 15,15
; filament_minimal_purge_on_wipe_tower = 15,15
; filament_notes = "Affordable filament for everyday printing in premium quality manufactured in-house by Josef Prusa";
; filament_ramming_parameters = "120 100| 0.05 6.6 0.45 6.8 0.95 7.8 1.45 8.3 1.95 9.7 2.45 10 2.95 7.6 3.45 7.6 3.95 7.6 4.45 7.6 4.95 7.6";"120 100 6.6 6.8 7.2 7.6 7.9 8.2 8.7 9.4 9.9 10.0| 0.05 6.6 0.45 6.8 0.95 7.8 1.45 8.3 1.95 9.7 2.45 10 2.95 7.6 3.45 7.6 3.95 7.6 4.45 7.6 4.95 7.6"
; filament_settings_id = PLA;!Off
; filament_soluble = 0,0
; filament_spool_weight = 0,0
; filament_toolchange_delay = 0,0
; filament_type = PLA;PLA
; filament_unload_time = 0,0
; filament_unloading_speed = 90,90
; filament_unloading_speed_start = 100,100
; filament_vendor = Prusa Polymers
; fill_angle = 45
; fill_density = 15%
; fill_pattern = grid
; first_layer_acceleration = 1000
; first_layer_acceleration_over_raft = 0
; first_layer_bed_temperature = 60,0
; first_layer_extrusion_width = 1.8
; first_layer_height = 0.9
; first_layer_speed = 20
; first_layer_speed_over_raft = 30
; first_layer_temperature = 210,0
; full_fan_speed_layer = 0,0
; fuzzy_skin = none
; fuzzy_skin_point_dist = 0.8
; fuzzy_skin_thickness = 0.3
; gap_fill_enabled = 1
; gap_fill_speed = 40
; gcode_comments = 0
; gcode_flavor = reprapfirmware
; gcode_label_objects = 0
; gcode_resolution = 0.0125
; gcode_substitutions = 
; high_current_on_filament_swap = 0
; host_type = duet
; infill_acceleration = 1000
; infill_anchor = 600%
; infill_anchor_max = 50
; infill_every_layers = 1
; infill_extruder = 1
; infill_extrusion_width = 1.8
; infill_first = 0
; infill_only_where_needed = 0
; infill_overlap = 25%
; infill_speed = 85
; interface_shells = 0
; ironing = 0
; ironing_flowrate = 15%
; ironing_spacing = 0.1
; ironing_speed = 15
; ironing_type = top
; layer_gcode = ;AFTER_LAYER_CHANGE\n;[layer_z]\nM800 F"layer"
; layer_height = 0.9
; machine_limits_usage = time_estimate_only
; machine_max_acceleration_e = 1500,1500
; machine_max_acceleration_extruding = 1500,1500
; machine_max_acceleration_retracting = 1500,1500
; machine_max_acceleration_travel = 500,1250
; machine_max_acceleration_x = 500,500
; machine_max_acceleration_y = 500,500
; machine_max_acceleration_z = 100,100
; machine_max_feedrate_e = 60,60
; machine_max_feedrate_x = 180,180
; machine_max_feedrate_y = 180,180
; machine_max_feedrate_z = 15,15
; machine_max_jerk_e = 25,25
; machine_max_jerk_x = 6.7,6.7
; machine_max_jerk_y = 6.7,6.7
; machine_max_jerk_z = 1.7,1.7
; machine_min_extruding_rate = 0,0
; machine_min_travel_rate = 0,0
; max_fan_speed = 100,100
; max_layer_height = 0,0
; max_print_height = 601
; max_print_speed = 200
; max_volumetric_speed = 0
; min_fan_speed = 100,100
; min_layer_height = 0.07,0.07
; min_print_speed = 15,15
; min_skirt_length = 4
; mmu_segmented_region_max_width = 0
; notes = 
; nozzle_diameter = 1.8,1.8
; only_retract_when_crossing_perimeters = 0
; ooze_prevention = 0
; output_filename_format = {input_filename_base}_T0-{filament_preset[0]}_T1-{filament_preset[1]}.gcode
; overhangs = 0
; parking_pos_retraction = 92
; pause_print_gcode = M601
; perimeter_acceleration = 800
; perimeter_extruder = 1
; perimeter_extrusion_width = 1.8
; perimeter_speed = 50
; perimeters = 2
; physical_printer_settings_id = Printer 1
; post_process = 
; print_settings_id = N1.8 0.9mm SPEED
; printer_model = 
; printer_notes = 
; printer_settings_id = Rancor
; printer_technology = FFF
; printer_variant = 
; printer_vendor = 
; raft_contact_distance = 0.1
; raft_expansion = 1.5
; raft_first_layer_density = 90%
; raft_first_layer_expansion = 3
; raft_layers = 0
; remaining_times = 0
; resolution = 0
; retract_before_travel = 2,2
; retract_before_wipe = 70%,70%
; retract_layer_change = 1,1
; retract_length = 0.5,0.5
; retract_length_toolchange = 0,0
; retract_lift = 0,0
; retract_lift_above = 0,0
; retract_lift_below = 600,600
; retract_restart_extra = 0,0
; retract_restart_extra_toolchange = 0,0
; retract_speed = 40,40
; seam_position = nearest
; silent_mode = 1
; single_extruder_multi_material = 0
; single_extruder_multi_material_priming = 0
; skirt_distance = 2
; skirt_height = 3
; skirts = 1
; slice_closing_radius = 0.049
; slicing_mode = regular
; slowdown_below_layer_time = 20,20
; small_perimeter_speed = 30
; solid_infill_below_area = 0
; solid_infill_every_layers = 0
; solid_infill_extruder = 1
; solid_infill_extrusion_width = 1.8
; solid_infill_speed = 80
; spiral_vase = 0
; standby_temperature_delta = 170
; start_filament_gcode = "; Filament-specific start gcode\nM703";
; start_gcode = ;Begin Start GCode\n\n;set temps\nG10 P0 S{temperature[0]}\nG10 P0 R{if temperature[0] == 0}0{else}{temperature[0] - 40}{endif}\nG10 P1 S{temperature[1]}\nG10 P1 R{if temperature[1] == 0}0{else}{temperature[1] - 40}{endif}\n\nG28 ;home all axis\nG29 S1 ;enable mesh\n\n{ if current_extruder == 0 }\nT0\n{ elsif current_extruder == 1 } \nT1\n{ endif }\n\nM116 ;Wait for all temps\n\nG90\nM98 P"prime.g"\n;End Start GCode
; support_material = 0
; support_material_angle = 0
; support_material_auto = 1
; support_material_bottom_contact_distance = 0
; support_material_bottom_interface_layers = -1
; support_material_buildplate_only = 0
; support_material_closing_radius = 2
; support_material_contact_distance = 0.1
; support_material_enforce_layers = 0
; support_material_extruder = 0
; support_material_extrusion_width = 0.38
; support_material_interface_contact_loops = 0
; support_material_interface_extruder = 0
; support_material_interface_layers = 2
; support_material_interface_pattern = rectilinear
; support_material_interface_spacing = 0.2
; support_material_interface_speed = 100%
; support_material_pattern = rectilinear
; support_material_spacing = 2
; support_material_speed = 45
; support_material_style = grid
; support_material_synchronize_layers = 0
; support_material_threshold = 55
; support_material_with_sheath = 0
; support_material_xy_spacing = 50%
; temperature = 210,0
; template_custom_gcode = 
; thick_bridges = 1
; thin_walls = 0
; threads = 32
; thumbnails = 128x128
; toolchange_gcode = ;T[next_extruder]
; top_fill_pattern = monotonic
; top_infill_extrusion_width = 1.8
; top_solid_infill_speed = 40
; top_solid_layers = 5
; top_solid_min_thickness = 0.6
; travel_speed = 180
; travel_speed_z = 0
; use_firmware_retraction = 1
; use_relative_e_distances = 1
; use_volumetric_e = 0
; variable_layer_height = 1
; wipe = 0,0
; wipe_into_infill = 0
; wipe_into_objects = 0
; wipe_tower = 0
; wipe_tower_bridging = 10
; wipe_tower_brim_width = 2
; wipe_tower_no_sparse_layers = 0
; wipe_tower_rotation_angle = 0
; wipe_tower_width = 60
; wipe_tower_x = 170
; wipe_tower_y = 125
; wiping_volumes_extruders = 70,70,70,70
; wiping_volumes_matrix = 0,140,140,0
; xy_size_compensation = 0
; z_offset = 0
; prusaslicer_config = end
