; generated by PrusaSlicer 2.4.2+win64 on 2022-05-19 at 02:53:28 UTC


;
;
; 

; external perimeters extrusion width = 1.50mm
; perimeters extrusion width = 1.50mm
; infill extrusion width = 1.50mm
; solid infill extrusion width = 1.50mm
; top infill extrusion width = 1.40mm
; first layer extrusion width = 1.50mm

M107
M190 S60 ; set bed temperature and wait for it to be reached
;TYPE:Custom
;Begin Start GCode

;set temps
G10 P0 S0
G10 P0 R0
G10 P1 S210
G10 P1 R170

G28 ;home all axis
G29 S1 ;enable mesh

 
T1


M116 ;Wait for all temps

G90
M98 P"prime.g"
;End Start GCode
G21 ; set units to millimeters
G90 ; use absolute coordinates
M83 ; use relative distances for extrusion
;T1
T1
; Filament-specific start gcode
M703
M107
;LAYER_CHANGE
;Z:0.7
;HEIGHT:0.7
;BEFORE_LAYER_CHANGE
G92 E0.0
;0.7

G10 ; retract
G1 Z.7 F10800
;AFTER_LAYER_CHANGE
;0.7
M800 F"layer"
G1 X143.134 Y137.218
G11 ; unretract
M204 P1000
;TYPE:Skirt/Brim
;WIDTH:1.5
G1 F952.537
G1 X145 Y136.65 E.7357
G1 X185 Y136.65 E15.08432
G1 X186.576 Y137.044 E.61271
G1 X187.782 Y138.134 E.61271
G1 X188.35 Y140 E.7357
G1 X188.35 Y180 E15.08432
G1 X187.956 Y181.576 E.61271
G1 X186.866 Y182.782 E.61271
G1 X185 Y183.35 E.7357
G1 X145 Y183.35 E15.08432
G1 X143.424 Y182.956 E.61271
G1 X142.218 Y181.866 E.61271
G1 X141.65 Y180 E.7357
G1 X141.65 Y140 E15.08432
G1 X142.044 Y138.424 E.61271
G1 X142.993 Y137.374 E.53352
G10 ; retract
G1 X147.3 Y142.3 F10800
G11 ; unretract
;TYPE:Perimeter
G1 F952.537
G1 X182.7 Y142.3 E13.34979
G1 X182.7 Y177.7 E13.34979
G1 X147.3 Y177.7 E13.34979
G1 X147.3 Y142.51 E13.2706
G10 ; retract
G1 X145.95 Y140.95 F10800
G11 ; unretract
;TYPE:External perimeter
G1 F952.537
G1 X184.05 Y140.95 E14.36782
G1 X184.05 Y179.05 E14.36782
G1 X145.95 Y179.05 E14.36782
G1 X145.95 Y141.16 E14.28863
G1 X147.302 Y141.312 F10800
G10 ; retract
G1 X179.536 Y142.705
G11 ; unretract
;TYPE:Solid infill
;WIDTH:1.51437
G1 F942.503
G1 X181.688 Y144.856 E1.15963
G1 X181.688 Y146.785 E.73526
G1 X178.215 Y143.312 E1.87207
G1 X176.285 Y143.312 E.73526
G1 X181.688 Y148.715 E2.91188
G1 X181.688 Y150.644 E.73526
G1 X174.356 Y143.312 E3.9517
G1 X172.427 Y143.312 E.73526
G1 X181.688 Y152.573 E4.99152
G1 X181.688 Y154.502 E.73526
G1 X170.498 Y143.312 E6.03133
G1 X168.569 Y143.312 E.73526
G1 X181.688 Y156.431 E7.07115
G1 X181.688 Y158.361 E.73526
G1 X166.639 Y143.312 E8.11097
G1 X164.71 Y143.312 E.73526
G1 X181.688 Y160.29 E9.15078
G1 X181.688 Y162.219 E.73526
G1 X162.781 Y143.312 E10.1906
G1 X160.852 Y143.312 E.73526
G1 X181.688 Y164.148 E11.23042
G1 X181.688 Y166.077 E.73526
G1 X158.923 Y143.312 E12.27023
G1 X156.993 Y143.312 E.73526
G1 X181.688 Y168.007 E13.31005
G1 X181.688 Y169.936 E.73526
G1 X155.064 Y143.312 E14.34987
G1 X153.135 Y143.312 E.73526
G1 X181.688 Y171.865 E15.38968
G1 X181.688 Y173.794 E.73526
G1 X151.206 Y143.312 E16.4295
G1 X149.277 Y143.312 E.73526
G1 X181.688 Y175.723 E17.46932
G1 X181.688 Y176.688 E.36761
G1 X180.723 Y176.688 E.36765
G1 X148.312 Y144.277 E17.46925
G1 X148.312 Y146.206 E.73526
G1 X178.794 Y176.688 E16.42944
G1 X176.865 Y176.688 E.73526
G1 X148.312 Y148.135 E15.38962
G1 X148.312 Y150.064 E.73526
G1 X174.936 Y176.688 E14.3498
G1 X173.006 Y176.688 E.73526
G1 X148.312 Y151.994 E13.30999
G1 X148.312 Y153.923 E.73526
G1 X171.077 Y176.688 E12.27017
G1 X169.148 Y176.688 E.73526
G1 X148.312 Y155.852 E11.23035
G1 X148.312 Y157.781 E.73526
G1 X167.219 Y176.688 E10.19054
G1 X165.29 Y176.688 E.73526
G1 X148.312 Y159.71 E9.15072
G1 X148.312 Y161.64 E.73526
G1 X163.36 Y176.688 E8.1109
G1 X161.431 Y176.688 E.73526
G1 X148.312 Y163.569 E7.07108
G1 X148.312 Y165.498 E.73526
G1 X159.502 Y176.688 E6.03127
G1 X157.573 Y176.688 E.73526
G1 X148.312 Y167.427 E4.99145
G1 X148.312 Y169.356 E.73526
G1 X155.644 Y176.688 E3.95163
G1 X153.714 Y176.688 E.73526
G1 X148.312 Y171.286 E2.91182
G1 X148.312 Y173.215 E.73526
G1 X151.785 Y176.688 E1.872
G1 X149.856 Y176.688 E.73526
G1 X147.705 Y174.537 E1.15957
G10 ; retract
M107
;TYPE:Custom
; Filament-specific end gcode
M106 S0 ; turn off cooling fan
G10 P0 S0 R0
G10 P1 S0 R0
M140 S0; turn off bed
;Drop the bed
G91
G1 Z10 F1000
G90
M0
; filament used [mm] = 0, 514.86
; filament used [cm3] = 0, 1.24
; filament used [g] = 0, 1.54
; filament cost = 0, 0.04
; total filament used [g] = 1.54
; total filament cost = 0.04
; estimated printing time (normal mode) = 1m 29s

; prusaslicer_config = begin
; avoid_crossing_perimeters = 0
; avoid_crossing_perimeters_max_detour = 0
; bed_custom_model = G:\\Rancor\\Rancor\\PrusaSlicer\\BedModel.stl
; bed_custom_texture = G:\\Rancor\\Rancor\\PrusaSlicer\\BedTexture.png
; bed_shape = 0x0,330x0,330x320,0x320
; bed_temperature = 0,60
; before_layer_gcode = ;BEFORE_LAYER_CHANGE\nG92 E0.0\n;[layer_z]\n
; between_objects_gcode = 
; bottom_fill_pattern = monotonic
; bottom_solid_layers = 3
; bottom_solid_min_thickness = 0.5
; bridge_acceleration = 1000
; bridge_angle = 0
; bridge_fan_speed = 100,100
; bridge_flow_ratio = 0.95
; bridge_speed = 30
; brim_separation = 0
; brim_type = outer_only
; brim_width = 0
; clip_multipart_objects = 1
; color_change_gcode = M600
; complete_objects = 0
; cooling = 0,1
; cooling_tube_length = 5
; cooling_tube_retraction = 91.5
; default_acceleration = 1000
; default_filament_profile = ""
; default_print_profile = 
; deretract_speed = 0,0
; disable_fan_first_layers = 1,1
; dont_support_bridges = 1
; draft_shield = disabled
; duplicate_distance = 6
; elefant_foot_compensation = 0.2
; end_filament_gcode = ;"; Filament-specific end gcode"
; end_gcode = M106 S0 ; turn off cooling fan\nG10 P0 S0 R0\nG10 P1 S0 R0\nM140 S0; turn off bed\n;Drop the bed\nG91\nG1 Z10 F1000\nG90\nM0
; ensure_vertical_shell_thickness = 1
; external_perimeter_extrusion_width = 1.5
; external_perimeter_speed = 35
; external_perimeters_first = 0
; extra_loading_move = -2
; extra_perimeters = 0
; extruder_clearance_height = 20
; extruder_clearance_radius = 45
; extruder_colour = #FF8000;#0000FF
; extruder_offset = 0x0,0x0
; extrusion_axis = E
; extrusion_multiplier = 1,0.96
; extrusion_width = 1.5
; fan_always_on = 0,1
; fan_below_layer_time = 100,100
; filament_colour = #FF8000;#FF8000
; filament_cooling_final_speed = 3.4,3.4
; filament_cooling_initial_speed = 2.2,2.2
; filament_cooling_moves = 4,4
; filament_cost = 0,24.99
; filament_density = 0,1.24
; filament_diameter = 1.75,1.75
; filament_load_time = 0,0
; filament_loading_speed = 28,28
; filament_loading_speed_start = 3,3
; filament_max_volumetric_speed = 15,15
; filament_minimal_purge_on_wipe_tower = 15,15
; filament_notes = ;"Affordable filament for everyday printing in premium quality manufactured in-house by Josef Prusa"
; filament_ramming_parameters = "120 100 6.6 6.8 7.2 7.6 7.9 8.2 8.7 9.4 9.9 10.0| 0.05 6.6 0.45 6.8 0.95 7.8 1.45 8.3 1.95 9.7 2.45 10 2.95 7.6 3.45 7.6 3.95 7.6 4.45 7.6 4.95 7.6";"120 100| 0.05 6.6 0.45 6.8 0.95 7.8 1.45 8.3 1.95 9.7 2.45 10 2.95 7.6 3.45 7.6 3.95 7.6 4.45 7.6 4.95 7.6"
; filament_settings_id = !Off;PLA
; filament_soluble = 0,0
; filament_spool_weight = 0,0
; filament_toolchange_delay = 0,0
; filament_type = PLA;PLA
; filament_unload_time = 0,0
; filament_unloading_speed = 90,90
; filament_unloading_speed_start = 100,100
; filament_vendor = Prusa Polymers
; fill_angle = 45
; fill_density = 15%
; fill_pattern = grid
; first_layer_acceleration = 1000
; first_layer_acceleration_over_raft = 0
; first_layer_bed_temperature = 0,60
; first_layer_extrusion_width = 1.5
; first_layer_height = 0.7
; first_layer_speed = 20
; first_layer_speed_over_raft = 30
; first_layer_temperature = 0,210
; full_fan_speed_layer = 0,0
; fuzzy_skin = none
; fuzzy_skin_point_dist = 0.8
; fuzzy_skin_thickness = 0.3
; gap_fill_enabled = 1
; gap_fill_speed = 40
; gcode_comments = 0
; gcode_flavor = reprapfirmware
; gcode_label_objects = 0
; gcode_resolution = 0.0125
; gcode_substitutions = 
; high_current_on_filament_swap = 0
; host_type = duet
; infill_acceleration = 1000
; infill_anchor = 600%
; infill_anchor_max = 50
; infill_every_layers = 1
; infill_extruder = 1
; infill_extrusion_width = 1.5
; infill_first = 0
; infill_only_where_needed = 0
; infill_overlap = 25%
; infill_speed = 85
; interface_shells = 0
; ironing = 0
; ironing_flowrate = 15%
; ironing_spacing = 0.1
; ironing_speed = 15
; ironing_type = top
; layer_gcode = ;AFTER_LAYER_CHANGE\n;[layer_z]\nM800 F"layer"
; layer_height = 0.7
; machine_limits_usage = time_estimate_only
; machine_max_acceleration_e = 1500,1500
; machine_max_acceleration_extruding = 1500,1500
; machine_max_acceleration_retracting = 1500,1500
; machine_max_acceleration_travel = 500,1250
; machine_max_acceleration_x = 500,500
; machine_max_acceleration_y = 500,500
; machine_max_acceleration_z = 100,100
; machine_max_feedrate_e = 60,60
; machine_max_feedrate_x = 180,180
; machine_max_feedrate_y = 180,180
; machine_max_feedrate_z = 15,15
; machine_max_jerk_e = 25,25
; machine_max_jerk_x = 6.7,6.7
; machine_max_jerk_y = 6.7,6.7
; machine_max_jerk_z = 1.7,1.7
; machine_min_extruding_rate = 0,0
; machine_min_travel_rate = 0,0
; max_fan_speed = 100,100
; max_layer_height = 0,0
; max_print_height = 601
; max_print_speed = 200
; max_volumetric_speed = 0
; min_fan_speed = 100,100
; min_layer_height = 0.07,0.07
; min_print_speed = 15,15
; min_skirt_length = 4
; mmu_segmented_region_max_width = 0
; notes = 
; nozzle_diameter = 1.4,1.4
; only_retract_when_crossing_perimeters = 0
; ooze_prevention = 0
; output_filename_format = {input_filename_base}_T0-{filament_preset[0]}_T1-{filament_preset[1]}.gcode
; overhangs = 0
; parking_pos_retraction = 92
; pause_print_gcode = M601
; perimeter_acceleration = 800
; perimeter_extruder = 1
; perimeter_extrusion_width = 1.5
; perimeter_speed = 50
; perimeters = 2
; physical_printer_settings_id = Printer 1
; post_process = 
; print_settings_id = N1.4 0.7mm SPEED
; printer_model = 
; printer_notes = 
; printer_settings_id = Rancor
; printer_technology = FFF
; printer_variant = 
; printer_vendor = 
; raft_contact_distance = 0.1
; raft_expansion = 1.5
; raft_first_layer_density = 90%
; raft_first_layer_expansion = 3
; raft_layers = 0
; remaining_times = 0
; resolution = 0
; retract_before_travel = 2,2
; retract_before_wipe = 70%,70%
; retract_layer_change = 1,1
; retract_length = 0.5,0.5
; retract_length_toolchange = 0,0
; retract_lift = 0,0
; retract_lift_above = 0,0
; retract_lift_below = 600,600
; retract_restart_extra = 0,0
; retract_restart_extra_toolchange = 0,0
; retract_speed = 40,40
; seam_position = nearest
; silent_mode = 1
; single_extruder_multi_material = 0
; single_extruder_multi_material_priming = 0
; skirt_distance = 2
; skirt_height = 3
; skirts = 1
; slice_closing_radius = 0.049
; slicing_mode = regular
; slowdown_below_layer_time = 20,20
; small_perimeter_speed = 30
; solid_infill_below_area = 0
; solid_infill_every_layers = 0
; solid_infill_extruder = 1
; solid_infill_extrusion_width = 1.5
; solid_infill_speed = 80
; spiral_vase = 0
; standby_temperature_delta = 170
; start_filament_gcode = ;"; Filament-specific start gcode\nM703"
; start_gcode = ;Begin Start GCode\n\n;set temps\nG10 P0 S{temperature[0]}\nG10 P0 R{if temperature[0] == 0}0{else}{temperature[0] - 40}{endif}\nG10 P1 S{temperature[1]}\nG10 P1 R{if temperature[1] == 0}0{else}{temperature[1] - 40}{endif}\n\nG28 ;home all axis\nG29 S1 ;enable mesh\n\n{ if current_extruder == 0 }\nT0\n{ elsif current_extruder == 1 } \nT1\n{ endif }\n\nM116 ;Wait for all temps\n\nG90\nM98 P"prime.g"\n;End Start GCode
; support_material = 0
; support_material_angle = 0
; support_material_auto = 1
; support_material_bottom_contact_distance = 0
; support_material_bottom_interface_layers = -1
; support_material_buildplate_only = 0
; support_material_closing_radius = 2
; support_material_contact_distance = 0.1
; support_material_enforce_layers = 0
; support_material_extruder = 0
; support_material_extrusion_width = 0.38
; support_material_interface_contact_loops = 0
; support_material_interface_extruder = 0
; support_material_interface_layers = 2
; support_material_interface_pattern = rectilinear
; support_material_interface_spacing = 0.2
; support_material_interface_speed = 100%
; support_material_pattern = rectilinear
; support_material_spacing = 2
; support_material_speed = 45
; support_material_style = grid
; support_material_synchronize_layers = 0
; support_material_threshold = 55
; support_material_with_sheath = 0
; support_material_xy_spacing = 50%
; temperature = 0,210
; template_custom_gcode = 
; thick_bridges = 1
; thin_walls = 0
; threads = 32
; thumbnails = 128x128
; toolchange_gcode = ;T[next_extruder]
; top_fill_pattern = monotonic
; top_infill_extrusion_width = 1.4
; top_solid_infill_speed = 40
; top_solid_layers = 5
; top_solid_min_thickness = 0.6
; travel_speed = 180
; travel_speed_z = 0
; use_firmware_retraction = 1
; use_relative_e_distances = 1
; use_volumetric_e = 0
; variable_layer_height = 1
; wipe = 0,0
; wipe_into_infill = 0
; wipe_into_objects = 0
; wipe_tower = 0
; wipe_tower_bridging = 10
; wipe_tower_brim_width = 2
; wipe_tower_no_sparse_layers = 0
; wipe_tower_rotation_angle = 0
; wipe_tower_width = 60
; wipe_tower_x = 170
; wipe_tower_y = 125
; wiping_volumes_extruders = 70,70,70,70
; wiping_volumes_matrix = 0,140,140,0
; xy_size_compensation = 0
; z_offset = 0
; prusaslicer_config = end
